;Generated by Cura LulzBot Edition GCodeWriter Version: 3.6.36
;FLAVOR:Marlin
;TIME:1396
;Filament used: 1.39057m
;Layer height: 0.24
;Generated with Cura_SteamEngine 3.6.36-win10
M82 ;absolute extrusion mode
M140 S25.0      ;Start heating bed
M104 S175          ;Start preheating hotend
M190 S25.0      ;Wait for bed to reach temp
M104 S220    ;Start heating hotend
;G92 E0                                        ;Reset extruder
G28                                           ;Home all axes

;G0 Z12                                        ;move to close of bottom
G32                                           ;ABL probing
M420 S1                                       ;Load and use bed leveling mesh
M109 S220    ;Wait for hotend to reach printing temp
G92 E0                                        ;Reset extruder
G0 Z12 F3000                                  ;Move Z up to safe height
M221 S100 T0
G92 E0
G1 F3000 E-4.1
;LAYER_COUNT:84
;LAYER:0
M107
G0 F3600 X9.991 Y-13.99 Z0.3
;TYPE:SKIRT
G1 F3000 E0
G1 F900 X10.555 Y-13.95 E0.02821
G1 X11.108 Y-13.831 E0.05643
G1 X11.638 Y-13.635 E0.08462
G1 X12.136 Y-13.367 E0.11284
G1 X12.59 Y-13.03 E0.14104
G1 X12.993 Y-12.634 E0.16923
G1 X13.336 Y-12.184 E0.19746
G1 X13.611 Y-11.691 E0.22562
G1 X13.815 Y-11.163 E0.25386
G1 X13.942 Y-10.612 E0.28207
G1 X13.991 Y-9.99 E0.3132
G1 X13.991 Y9.991 E1.31006
G1 X13.951 Y10.555 E1.33827
G1 X13.832 Y11.108 E1.36649
G1 X13.636 Y11.638 E1.39468
G1 X13.368 Y12.135 E1.42285
G1 X13.032 Y12.59 E1.45107
G1 X12.635 Y12.993 E1.47929
G1 X12.185 Y13.335 E1.50749
G1 X11.692 Y13.611 E1.53568
G1 X11.164 Y13.815 E1.56392
G1 X10.614 Y13.942 E1.59208
G1 X9.991 Y13.991 E1.62326
G1 X-9.991 Y13.991 E2.62016
G1 X-10.555 Y13.951 E2.64837
G1 X-11.108 Y13.832 E2.67659
G1 X-11.638 Y13.636 E2.70479
G1 X-12.135 Y13.368 E2.73296
G1 X-12.59 Y13.032 E2.76118
G1 X-12.993 Y12.635 E2.7894
G1 X-13.335 Y12.185 E2.8176
G1 X-13.611 Y11.692 E2.84578
G1 X-13.815 Y11.164 E2.87402
G1 X-13.942 Y10.614 E2.90219
G1 X-13.991 Y9.991 E2.93336
G1 X-13.991 Y-9.991 E3.93027
G1 X-13.951 Y-10.555 E3.95848
G1 X-13.832 Y-11.108 E3.9867
G1 X-13.636 Y-11.638 E4.01489
G1 X-13.368 Y-12.135 E4.04306
G1 X-13.032 Y-12.59 E4.07128
G1 X-12.635 Y-12.993 E4.0995
G1 X-12.185 Y-13.335 E4.1277
G1 X-11.692 Y-13.611 E4.15589
G1 X-11.164 Y-13.815 E4.18413
G1 X-10.614 Y-13.942 E4.21229
G1 X-9.991 Y-13.991 E4.24347
G1 X9.991 Y-13.99 E5.24037
G0 F3600 X9.991 Y-13.59
G1 F900 X10.526 Y-13.55 E5.26714
G1 X11.049 Y-13.431 E5.2939
G1 X11.548 Y-13.236 E5.32063
G1 X12.013 Y-12.968 E5.3474
G1 X12.433 Y-12.635 E5.37415
G1 X12.799 Y-12.243 E5.4009
G1 X13.103 Y-11.801 E5.42767
G1 X13.337 Y-11.318 E5.45444
G1 X13.497 Y-10.806 E5.4812
G1 X13.58 Y-10.277 E5.50792
G1 X13.591 Y-9.99 E5.52225
G1 X13.591 Y9.991 E6.5191
G1 X13.551 Y10.526 E6.54587
G1 X13.432 Y11.049 E6.57263
G1 X13.237 Y11.548 E6.59936
G1 X12.969 Y12.013 E6.62613
G1 X12.636 Y12.433 E6.65287
G1 X12.244 Y12.799 E6.67963
G1 X11.802 Y13.102 E6.70637
G1 X11.319 Y13.337 E6.73316
G1 X10.808 Y13.497 E6.75988
G1 X10.278 Y13.58 E6.78664
G1 X9.991 Y13.591 E6.80097
G1 X-9.991 Y13.591 E7.79788
G1 X-10.526 Y13.551 E7.82464
G1 X-11.049 Y13.432 E7.8514
G1 X-11.548 Y13.237 E7.87813
G1 X-12.013 Y12.969 E7.90491
G1 X-12.433 Y12.636 E7.93165
G1 X-12.799 Y12.244 E7.9584
G1 X-13.102 Y11.802 E7.98514
G1 X-13.337 Y11.319 E8.01194
G1 X-13.497 Y10.808 E8.03865
G1 X-13.58 Y10.278 E8.06542
G1 X-13.591 Y9.991 E8.07974
G1 X-13.591 Y-9.991 E9.07665
G1 X-13.551 Y-10.526 E9.10342
G1 X-13.432 Y-11.049 E9.13018
G1 X-13.237 Y-11.548 E9.1569
G1 X-12.969 Y-12.013 E9.18368
G1 X-12.636 Y-12.433 E9.21042
G1 X-12.244 Y-12.799 E9.23718
G1 X-11.802 Y-13.102 E9.26391
G1 X-11.319 Y-13.337 E9.29071
G1 X-10.808 Y-13.497 E9.31743
G1 X-10.278 Y-13.58 E9.34419
G1 X-9.991 Y-13.591 E9.35852
G1 X9.991 Y-13.59 E10.35542
G0 F3600 X9.991 Y-13.19
G1 F900 X10.495 Y-13.15 E10.38065
G1 X10.987 Y-13.031 E10.4059
G1 X11.453 Y-12.836 E10.4311
G1 X11.883 Y-12.571 E10.4563
G1 X12.266 Y-12.24 E10.48156
G1 X12.592 Y-11.854 E10.50677
G1 X12.853 Y-11.421 E10.53199
G1 X13.043 Y-10.952 E10.55723
G1 X13.156 Y-10.46 E10.58242
G1 X13.191 Y-9.99 E10.60593
G1 X13.191 Y9.991 E11.60279
G1 X13.151 Y10.495 E11.62801
G1 X13.032 Y10.986 E11.65322
G1 X12.838 Y11.453 E11.67845
G1 X12.572 Y11.883 E11.70367
G1 X12.242 Y12.266 E11.7289
G1 X11.855 Y12.592 E11.75414
G1 X11.422 Y12.853 E11.77936
G1 X10.954 Y13.043 E11.80456
G1 X10.461 Y13.156 E11.8298
G1 X9.991 Y13.191 E11.85331
G1 X-9.991 Y13.191 E12.85022
G1 X-10.495 Y13.151 E12.87544
G1 X-10.986 Y13.032 E12.90065
G1 X-11.453 Y12.838 E12.92587
G1 X-11.883 Y12.572 E12.9511
G1 X-12.266 Y12.242 E12.97632
G1 X-12.592 Y11.855 E13.00157
G1 X-12.853 Y11.422 E13.02679
G1 X-13.043 Y10.954 E13.05199
G1 X-13.156 Y10.461 E13.07722
G1 X-13.191 Y9.991 E13.10074
G1 X-13.191 Y-9.991 E14.09764
G1 X-13.151 Y-10.495 E14.12287
G1 X-13.032 Y-10.986 E14.14807
G1 X-12.838 Y-11.453 E14.1733
G1 X-12.572 Y-11.883 E14.19853
G1 X-12.242 Y-12.266 E14.22375
G1 X-11.855 Y-12.592 E14.24899
G1 X-11.422 Y-12.853 E14.27422
G1 X-10.954 Y-13.043 E14.29942
G1 X-10.461 Y-13.156 E14.32465
G1 X-9.991 Y-13.191 E14.34816
G1 X9.991 Y-13.19 E15.34507
G1 F3000 E11.24507
;MESH:
G0 F3600 X9.386 Y-10.665
G0 X9.386 Y-9.386
G0 X9.33 Y9.33
G0 X9.4 Y9.4
;TYPE:WALL-INNER
G1 F3000 E15.34507
G1 F600 X-9.4 Y9.4 E16.28301
G1 X-9.4 Y-9.4 E17.22094
G1 X9.4 Y-9.4 E18.15888
G1 X9.4 Y9.4 E19.09681
G0 F3600 X9.8 Y9.8
;TYPE:WALL-OUTER
G1 F600 X-9.8 Y9.8 E20.07466
G1 X-9.8 Y-9.8 E21.05251
G1 X9.8 Y-9.8 E22.03036
G1 X9.8 Y9.8 E23.00821
G0 F3600 X9.6 Y9.8
G0 X9.33 Y9.33
G0 X9.01 Y9.01
;TYPE:SKIN
G1 F600 X-9.01 Y9.01 E23.90723
G1 X-9.01 Y-9.01 E24.80625
G1 X9.01 Y-9.01 E25.70527
G1 X9.01 Y9.01 E26.60429
G0 F3600 X8.706 Y-8.829
G1 F600 X8.829 Y-8.706 E26.61297
G0 F3600 X8.829 Y-8.14
G1 F600 X8.14 Y-8.829 E26.66158
G0 F3600 X7.575 Y-8.829
G1 F600 X8.829 Y-7.575 E26.75006
G0 F3600 X8.829 Y-7.009
G1 F600 X7.009 Y-8.829 E26.87847
G0 F3600 X6.443 Y-8.829
G1 F600 X8.829 Y-6.443 E27.04681
G0 F3600 X8.829 Y-5.878
G1 F600 X5.878 Y-8.829 E27.25502
G0 F3600 X5.312 Y-8.829
G1 F600 X8.829 Y-5.312 E27.50317
G0 F3600 X8.829 Y-4.746
G1 F600 X4.746 Y-8.829 E27.79124
G0 F3600 X4.181 Y-8.829
G1 F600 X8.829 Y-4.181 E28.11919
G0 F3600 X8.829 Y-3.615
G1 F600 X3.615 Y-8.829 E28.48706
G0 F3600 X3.049 Y-8.829
G1 F600 X8.829 Y-3.049 E28.89487
G0 F3600 X8.829 Y-2.484
G1 F600 X2.484 Y-8.829 E29.34255
G0 F3600 X1.918 Y-8.829
G1 F600 X8.829 Y-1.918 E29.83015
G0 F3600 X8.829 Y-1.352
G1 F600 X1.352 Y-8.829 E30.3577
G0 F3600 X0.787 Y-8.829
G1 F600 X8.829 Y-.787 E30.9251
G0 F3600 X8.829 Y-.221
G1 F600 X0.221 Y-8.829 E31.53244
G0 F3600 X-.344 Y-8.829
G1 F600 X8.829 Y0.344 E32.17965
G0 F3600 X8.829 Y0.91
G1 F600 X-.91 Y-8.829 E32.86679
G0 F3600 X-1.475 Y-8.829
G1 F600 X8.829 Y1.475 E33.59379
G0 F3600 X8.829 Y2.041
G1 F600 X-2.041 Y-8.829 E34.36073
G0 F3600 X-2.607 Y-8.829
G1 F600 X8.829 Y2.607 E35.1676
G0 F3600 X8.829 Y3.172
G1 F600 X-3.172 Y-8.829 E36.01434
G0 F3600 X-3.738 Y-8.829
G1 F600 X8.829 Y3.738 E36.90101
G0 F3600 X8.829 Y4.304
G1 F600 X-4.304 Y-8.829 E37.82761
G0 F3600 X-4.869 Y-8.829
G1 F600 X8.829 Y4.869 E38.79408
G0 F3600 X8.829 Y5.435
G1 F600 X-5.435 Y-8.829 E39.80048
G0 F3600 X-6.001 Y-8.829
G1 F600 X8.829 Y6.001 E40.84682
G0 F3600 X8.829 Y6.566
G1 F600 X-6.566 Y-8.829 E41.93302
G0 F3600 X-7.132 Y-8.829
G1 F600 X8.829 Y7.132 E43.05915
G0 F3600 X8.829 Y7.698
G1 F600 X-7.698 Y-8.829 E44.22522
G0 F3600 X-8.263 Y-8.829
G1 F600 X8.829 Y8.263 E45.43115
G0 F3600 X8.829 Y8.829
G1 F600 X-8.829 Y-8.829 E46.67702
G0 F3600 X-8.829 Y-8.263
G1 F600 X8.263 Y8.829 E47.88295
G0 F3600 X7.698 Y8.829
G1 F600 X-8.829 Y-7.698 E49.04902
G0 F3600 X-8.829 Y-7.132
G1 F600 X7.132 Y8.829 E50.17516
G0 F3600 X6.566 Y8.829
G1 F600 X-8.829 Y-6.566 E51.26136
G0 F3600 X-8.829 Y-6.001
G1 F600 X6.001 Y8.829 E52.30769
G0 F3600 X5.435 Y8.829
G1 F600 X-8.829 Y-5.435 E53.3141
G0 F3600 X-8.829 Y-4.869
G1 F600 X4.869 Y8.829 E54.28056
G0 F3600 X4.304 Y8.829
G1 F600 X-8.829 Y-4.304 E55.20717
G0 F3600 X-8.829 Y-3.738
G1 F600 X3.738 Y8.829 E56.09384
G0 F3600 X3.172 Y8.829
G1 F600 X-8.829 Y-3.172 E56.94057
G0 F3600 X-8.829 Y-2.607
G1 F600 X2.607 Y8.829 E57.74745
G0 F3600 X2.041 Y8.829
G1 F600 X-8.829 Y-2.041 E58.51438
G0 F3600 X-8.829 Y-1.475
G1 F600 X1.475 Y8.829 E59.24139
G0 F3600 X0.91 Y8.829
G1 F600 X-8.829 Y-.91 E59.92852
G0 F3600 X-8.829 Y-.344
G1 F600 X0.344 Y8.829 E60.57573
G0 F3600 X-.221 Y8.829
G1 F600 X-8.829 Y0.221 E61.18307
G0 F3600 X-8.829 Y0.787
G1 F600 X-.787 Y8.829 E61.75048
G0 F3600 X-1.352 Y8.829
G1 F600 X-8.829 Y1.352 E62.27802
G0 F3600 X-8.829 Y1.918
G1 F600 X-1.918 Y8.829 E62.76563
G0 F3600 X-2.484 Y8.829
G1 F600 X-8.829 Y2.484 E63.2133
G0 F3600 X-8.829 Y3.049
G1 F600 X-3.049 Y8.829 E63.62111
G0 F3600 X-3.615 Y8.829
G1 F600 X-8.829 Y3.615 E63.98899
G0 F3600 X-8.829 Y4.181
G1 F600 X-4.181 Y8.829 E64.31693
G0 F3600 X-4.746 Y8.829
G1 F600 X-8.829 Y4.746 E64.60501
G0 F3600 X-8.829 Y5.312
G1 F600 X-5.312 Y8.829 E64.85315
G0 F3600 X-5.878 Y8.829
G1 F600 X-8.829 Y5.878 E65.06136
M104 S215
G0 F3600 X-8.829 Y6.443
G1 F600 X-6.443 Y8.829 E65.2297
G0 F3600 X-7.009 Y8.829
G1 F600 X-8.829 Y7.009 E65.35812
G0 F3600 X-8.829 Y7.575
G1 F600 X-7.575 Y8.829 E65.44659
G0 F3600 X-8.14 Y8.829
G1 F600 X-8.829 Y8.14 E65.4952
G0 F3600 X-8.829 Y8.706
G1 F600 X-8.706 Y8.829 E65.50388
;MESH:NONMESH
G0 F3600 X9.33 Y9.33
G0 X9.4 Y9.4
;TIME_ELAPSED:131.744980
;LAYER:1
M140 S30
M221 S100 T0
M106 S255
;MESH:
G0 F5400 X9.4 Y9.4 Z0.54
;TYPE:WALL-INNER
G1 F1800 X-9.4 Y9.4 E66.25423
G1 X-9.4 Y-9.4 E67.00458
G1 X9.4 Y-9.4 E67.75493
G1 X9.4 Y9.4 E68.50528
G0 F5400 X9.8 Y9.8
;TYPE:WALL-OUTER
G1 F900 X-9.8 Y9.8 E69.28756
G1 X-9.8 Y-9.8 E70.06983
G1 X9.8 Y-9.8 E70.85211
G1 X9.8 Y9.8 E71.63439
G0 F5400 X9.6 Y9.8
G0 X9.33 Y9.33
G0 X9.01 Y9.01
;TYPE:SKIN
G1 F750 X-9.01 Y9.01 E72.35361
G1 X-9.01 Y-9.01 E73.07283
G1 X9.01 Y-9.01 E73.79204
G1 X9.01 Y9.01 E74.51126
G0 F5400 X8.706 Y8.829
G1 F750 X8.829 Y8.706 E74.5182
G0 F5400 X8.829 Y8.14
G1 F750 X8.14 Y8.829 E74.55709
G0 F5400 X7.575 Y8.829
G1 F750 X8.829 Y7.575 E74.62787
G0 F5400 X8.829 Y7.009
G1 F750 X7.009 Y8.829 E74.7306
G0 F5400 X6.443 Y8.829
G1 F750 X8.829 Y6.443 E74.86528
G0 F5400 X8.829 Y5.878
G1 F750 X5.878 Y8.829 E75.03185
G0 F5400 X5.312 Y8.829
G1 F750 X8.829 Y5.312 E75.23036
G0 F5400 X8.829 Y4.746
G1 F750 X4.746 Y8.829 E75.46082
G0 F5400 X4.181 Y8.829
G1 F750 X8.829 Y4.181 E75.72318
G0 F5400 X8.829 Y3.615
G1 F750 X3.615 Y8.829 E76.01748
G0 F5400 X3.049 Y8.829
G1 F750 X8.829 Y3.049 E76.34372
G0 F5400 X8.829 Y2.484
G1 F750 X2.484 Y8.829 E76.70186
G0 F5400 X1.918 Y8.829
G1 F750 X8.829 Y1.918 E77.09195
G0 F5400 X8.829 Y1.352
G1 F750 X1.352 Y8.829 E77.51398
G0 F5400 X0.787 Y8.829
G1 F750 X8.829 Y0.787 E77.96791
G0 F5400 X8.829 Y0.221
G1 F750 X0.221 Y8.829 E78.45378
G0 F5400 X-.344 Y8.829
G1 F750 X8.829 Y-.344 E78.97155
G0 F5400 X8.829 Y-.91
G1 F750 X-.91 Y8.829 E79.52126
G0 F5400 X-1.475 Y8.829
G1 F750 X8.829 Y-1.475 E80.10286
G0 F5400 X8.829 Y-2.041
G1 F750 X-2.041 Y8.829 E80.71641
G0 F5400 X-2.607 Y8.829
G1 F750 X8.829 Y-2.607 E81.36191
G0 F5400 X8.829 Y-3.172
G1 F750 X-3.172 Y8.829 E82.03929
G0 F5400 X-3.738 Y8.829
G1 F750 X8.829 Y-3.738 E82.74863
G0 F5400 X8.829 Y-4.304
G1 F750 X-4.304 Y8.829 E83.48991
G0 F5400 X-4.869 Y8.829
G1 F750 X8.829 Y-4.869 E84.26309
G0 F5400 X8.829 Y-5.435
G1 F750 X-5.435 Y8.829 E85.06821
G0 F5400 X-6.001 Y8.829
G1 F750 X8.829 Y-6.001 E85.90528
G0 F5400 X8.829 Y-6.566
G1 F750 X-6.566 Y8.829 E86.77424
G0 F5400 X-7.132 Y8.829
G1 F750 X8.829 Y-7.132 E87.67515
G0 F5400 X8.829 Y-7.698
G1 F750 X-7.698 Y8.829 E88.608
G0 F5400 X-8.263 Y8.829
G1 F750 X8.829 Y-8.263 E89.57275
G0 F5400 X8.829 Y-8.829
G1 F750 X-8.829 Y8.829 E90.56944
G0 F5400 X-8.829 Y8.263
G1 F750 X8.263 Y-8.829 E91.53419
G0 F5400 X7.698 Y-8.829
G1 F750 X-8.829 Y7.698 E92.46704
G0 F5400 X-8.829 Y7.132
G1 F750 X7.132 Y-8.829 E93.36795
G0 F5400 X6.566 Y-8.829
G1 F750 X-8.829 Y6.566 E94.23691
G0 F5400 X-8.829 Y6.001
G1 F750 X6.001 Y-8.829 E95.07398
G0 F5400 X5.435 Y-8.829
G1 F750 X-8.829 Y5.435 E95.8791
G0 F5400 X-8.829 Y4.869
G1 F750 X4.869 Y-8.829 E96.65228
G0 F5400 X4.304 Y-8.829
G1 F750 X-8.829 Y4.304 E97.39356
G0 F5400 X-8.829 Y3.738
G1 F750 X3.738 Y-8.829 E98.1029
G0 F5400 X3.172 Y-8.829
G1 F750 X-8.829 Y3.172 E98.78029
G0 F5400 X-8.829 Y2.607
G1 F750 X2.607 Y-8.829 E99.42578
G0 F5400 X2.041 Y-8.829
G1 F750 X-8.829 Y2.041 E100.03933
G0 F5400 X-8.829 Y1.475
G1 F750 X1.475 Y-8.829 E100.62093
G0 F5400 X0.91 Y-8.829
G1 F750 X-8.829 Y0.91 E101.17065
G0 F5400 X-8.829 Y0.344
G1 F750 X0.344 Y-8.829 E101.68841
G0 F5400 X-.221 Y-8.829
G1 F750 X-8.829 Y-.221 E102.17428
G0 F5400 X-8.829 Y-.787
G1 F750 X-.787 Y-8.829 E102.62821
G0 F5400 X-1.352 Y-8.829
G1 F750 X-8.829 Y-1.352 E103.05024
G0 F5400 X-8.829 Y-1.918
G1 F750 X-1.918 Y-8.829 E103.44033
G0 F5400 X-2.484 Y-8.829
G1 F750 X-8.829 Y-2.484 E103.79847
G0 F5400 X-8.829 Y-3.049
G1 F750 X-3.049 Y-8.829 E104.12472
G0 F5400 X-3.615 Y-8.829
G1 F750 X-8.829 Y-3.615 E104.41902
G0 F5400 X-8.829 Y-4.181
G1 F750 X-4.181 Y-8.829 E104.68137
G0 F5400 X-4.746 Y-8.829
G1 F750 X-8.829 Y-4.746 E104.91183
G0 F5400 X-8.829 Y-5.312
G1 F750 X-5.312 Y-8.829 E105.11035
G0 F5400 X-5.878 Y-8.829
G1 F750 X-8.829 Y-5.878 E105.27691
G0 F5400 X-8.829 Y-6.443
G1 F750 X-6.443 Y-8.829 E105.41159
G0 F5400 X-7.009 Y-8.829
G1 F750 X-8.829 Y-7.009 E105.51432
G0 F5400 X-8.829 Y-7.575
G1 F750 X-7.575 Y-8.829 E105.5851
G0 F5400 X-8.14 Y-8.829
G1 F750 X-8.829 Y-8.14 E105.62399
G0 F5400 X-8.829 Y-8.706
G1 F750 X-8.706 Y-8.829 E105.63093
;MESH:NONMESH
G0 F5400 X9.33 Y9.33
G0 X9.4 Y9.4
;TIME_ELAPSED:209.407576
;LAYER:2
;MESH:
G0 F7200 X9.4 Y9.4 Z0.78
;TYPE:WALL-INNER
G1 F3000 X-9.4 Y9.4 E106.38128
G1 X-9.4 Y-9.4 E107.13163
G1 X9.4 Y-9.4 E107.88198
G1 X9.4 Y9.4 E108.63233
G0 F7200 X9.8 Y9.8
;TYPE:WALL-OUTER
G1 F1200 X-9.8 Y9.8 E109.41461
G1 X-9.8 Y-9.8 E110.19688
G1 X9.8 Y-9.8 E110.97916
G1 X9.8 Y9.8 E111.76144
G0 F7200 X9.6 Y9.8
G0 X9.33 Y9.33
G0 X9.01 Y9.01
;TYPE:SKIN
G1 F900 X-9.01 Y9.01 E112.48066
G1 X-9.01 Y-9.01 E113.19988
G1 X9.01 Y-9.01 E113.91909
G1 X9.01 Y9.01 E114.63831
G0 F7200 X8.706 Y-8.829
G1 F900 X8.829 Y-8.706 E114.64525
G0 F7200 X8.829 Y-8.14
G1 F900 X8.14 Y-8.829 E114.68414
G0 F7200 X7.575 Y-8.829
G1 F900 X8.829 Y-7.575 E114.75492
G0 F7200 X8.829 Y-7.009
G1 F900 X7.009 Y-8.829 E114.85765
G0 F7200 X6.443 Y-8.829
G1 F900 X8.829 Y-6.443 E114.99233
G0 F7200 X8.829 Y-5.878
G1 F900 X5.878 Y-8.829 E115.1589
G0 F7200 X5.312 Y-8.829
G1 F900 X8.829 Y-5.312 E115.35741
G0 F7200 X8.829 Y-4.746
G1 F900 X4.746 Y-8.829 E115.58787
G0 F7200 X4.181 Y-8.829
G1 F900 X8.829 Y-4.181 E115.85023
G0 F7200 X8.829 Y-3.615
G1 F900 X3.615 Y-8.829 E116.14453
G0 F7200 X3.049 Y-8.829
G1 F900 X8.829 Y-3.049 E116.47077
G0 F7200 X8.829 Y-2.484
G1 F900 X2.484 Y-8.829 E116.82891
G0 F7200 X1.918 Y-8.829
G1 F900 X8.829 Y-1.918 E117.219
G0 F7200 X8.829 Y-1.352
G1 F900 X1.352 Y-8.829 E117.64103
G0 F7200 X0.787 Y-8.829
G1 F900 X8.829 Y-.787 E118.09496
G0 F7200 X8.829 Y-.221
G1 F900 X0.221 Y-8.829 E118.58083
G0 F7200 X-.344 Y-8.829
G1 F900 X8.829 Y0.344 E119.0986
G0 F7200 X8.829 Y0.91
G1 F900 X-.91 Y-8.829 E119.64831
G0 F7200 X-1.475 Y-8.829
G1 F900 X8.829 Y1.475 E120.22991
G0 F7200 X8.829 Y2.041
G1 F900 X-2.041 Y-8.829 E120.84346
G0 F7200 X-2.607 Y-8.829
G1 F900 X8.829 Y2.607 E121.48896
G0 F7200 X8.829 Y3.172
G1 F900 X-3.172 Y-8.829 E122.16634
G0 F7200 X-3.738 Y-8.829
G1 F900 X8.829 Y3.738 E122.87568
G0 F7200 X8.829 Y4.304
G1 F900 X-4.304 Y-8.829 E123.61696
G0 F7200 X-4.869 Y-8.829
G1 F900 X8.829 Y4.869 E124.39014
G0 F7200 X8.829 Y5.435
G1 F900 X-5.435 Y-8.829 E125.19526
