;Generated by Cura LulzBot Edition GCodeWriter Version: 3.6.36
;FLAVOR:Marlin
;TIME:5081
;Filament used: 3.27025m
;Layer height: 0.24
;Generated with Cura_SteamEngine 3.6.36-win10
M82 ;absolute extrusion mode
M140 S25      ;Start heating bed
M104 S175          ;Start preheating hotend
M190 S25      ;Wait for bed to reach temp
M104 S220    ;Start heating hotend
;G92 E0                                        ;Reset extruder
G28                                           ;Home all axes

;G0 Z12                                        ;move to close of bottom
G32                                           ;ABL probing
M420 S1                                       ;Load and use bed leveling mesh
M109 S220    ;Wait for hotend to reach printing temp
G92 E0                                        ;Reset extruder
G0 Z12 F3000                                  ;Move Z up to safe height
M221 S100 T0
G92 E0
G1 F30000 E-4.1
;LAYER_COUNT:93
;LAYER:0
M107
G0 F3600 X-5.345 Y3.995 Z0.3
;TYPE:SKIRT
G1 F30000 E0
G1 F900 X-5.436 Y4.018 E0.00468
G1 X-6.064 Y4.091 E0.03622
G1 X-6.696 Y4.085 E0.06776
G1 X-7.322 Y3.998 E0.09929
G1 X-7.933 Y3.834 E0.13085
G1 X-8.517 Y3.594 E0.16235
G1 X-9.067 Y3.282 E0.1939
G1 X-9.352 Y3.08 E0.21133
G1 X-13.812 Y-.306 E0.4907
G1 X-14.291 Y-.719 E0.52225
G1 X-14.713 Y-1.189 E0.55376
G1 X-15.073 Y-1.709 E0.58532
G1 X-15.255 Y-2.039 E0.60412
G1 X-15.326 Y-2.18 E0.61199
G1 X-15.574 Y-2.762 E0.64356
G1 X-15.747 Y-3.37 E0.67509
G1 X-15.841 Y-3.995 E0.70663
G1 X-15.86 Y-4.43 E0.72835
G1 X-15.859 Y-13.131 E1.16244
G1 X-15.819 Y-13.761 E1.19394
G1 X-15.7 Y-14.382 E1.22548
G1 X-15.503 Y-14.983 E1.25704
G1 X-15.335 Y-15.358 E1.27754
G1 X-15.227 Y-15.575 E1.28963
G1 X-14.91 Y-16.122 E1.32117
G1 X-14.527 Y-16.624 E1.35267
G1 X-14.083 Y-17.075 E1.38425
G1 X-13.772 Y-17.331 E1.40434
G1 X-9.347 Y-20.686 E1.68139
G1 X-8.82 Y-21.036 E1.71295
G1 X-8.253 Y-21.316 E1.7445
G1 X-7.656 Y-21.522 E1.77601
G1 X-7.037 Y-21.651 E1.80755
G1 X-6.407 Y-21.701 E1.83908
G1 X-5.775 Y-21.672 E1.87065
G1 X-5.357 Y-21.598 E1.89182
G1 X-5.092 Y-22.155 E1.9226
G1 X-4.751 Y-22.687 E1.95412
G1 X-4.345 Y-23.172 E1.98568
G1 X-3.881 Y-23.601 E2.01721
G1 X-3.603 Y-23.812 E2.03462
G1 X-3.386 Y-23.965 E2.04786
G1 X-2.848 Y-24.296 E2.07938
G1 X-2.271 Y-24.557 E2.11097
G1 X-1.667 Y-24.742 E2.14249
G1 X-1.044 Y-24.85 E2.17403
G1 X-.503 Y-24.879 E2.20106
G1 X10.527 Y-24.875 E2.75135
G1 X11.158 Y-24.835 E2.7829
G1 X11.778 Y-24.715 E2.8144
G1 X12.379 Y-24.519 E2.84594
G1 X12.95 Y-24.247 E2.8775
G1 X13.293 Y-24.039 E2.89751
G1 X13.475 Y-23.918 E2.90841
G1 X13.978 Y-23.535 E2.93995
G1 X14.429 Y-23.092 E2.97149
G1 X14.821 Y-22.596 E3.00303
G1 X15.147 Y-22.054 E3.03459
G1 X15.401 Y-21.476 E3.06609
G1 X15.581 Y-20.869 E3.09767
G1 X15.683 Y-20.246 E3.12917
G1 X15.707 Y-19.778 E3.15255
G1 X15.722 Y-16.599 E3.31115
G1 X15.685 Y-15.968 E3.34269
G1 X15.569 Y-15.346 E3.37425
G1 X15.375 Y-14.744 E3.40581
G1 X15.107 Y-14.172 E3.43732
G1 X14.716 Y-13.567 E3.47326
G1 X14.6 Y-13.413 E3.48288
G1 X14.188 Y-12.933 E3.51444
G1 X13.72 Y-12.509 E3.54594
G1 X13.201 Y-12.147 E3.57751
G1 X12.721 Y-11.89 E3.60468
G1 X7.382 Y-9.398 E3.89863
G1 X6.793 Y-9.168 E3.93017
G1 X6.18 Y-9.013 E3.96172
G1 X5.274 Y-8.929 E4.00711
G1 X2.128 Y-8.925 E4.16407
G1 X2.128 Y-8.679 E4.17634
G1 X5.226 Y-8.678 E4.3309
G1 X5.857 Y-8.638 E4.36244
G1 X6.477 Y-8.518 E4.39395
G1 X7.333 Y-8.211 E4.43932
G1 X12.737 Y-5.697 E4.73667
G1 X13.292 Y-5.395 E4.7682
G1 X13.805 Y-5.025 E4.79975
G1 X14.032 Y-4.813 E4.81525
G1 X16.65 Y-6.801 E4.97925
G1 X17.177 Y-7.151 E5.01081
G1 X17.744 Y-7.431 E5.04236
G1 X18.341 Y-7.638 E5.07389
G1 X18.96 Y-7.768 E5.10544
G1 X19.59 Y-7.818 E5.13697
G1 X20.221 Y-7.789 E5.16848
G1 X20.626 Y-7.718 E5.189
G1 X20.656 Y-7.81 E5.19383
G1 X20.929 Y-8.38 E5.22536
G1 X21.272 Y-8.912 E5.25694
G1 X21.901 Y-9.613 E5.30392
G1 X22.045 Y-9.746 E5.3137
G1 X22.535 Y-10.145 E5.34523
G1 X23.072 Y-10.478 E5.37675
G1 X23.647 Y-10.742 E5.40832
G1 X24.25 Y-10.93 E5.43983
G1 X24.872 Y-11.041 E5.47135
G1 X25.447 Y-11.073 E5.50009
G1 X36.619 Y-11.051 E6.05746
G1 X37.25 Y-11.01 E6.08901
G1 X37.87 Y-10.889 E6.12052
G1 X38.471 Y-10.692 E6.15208
G1 X39.041 Y-10.42 E6.18359
G1 X39.573 Y-10.078 E6.21514
G1 X40.057 Y-9.672 E6.24666
G1 X40.539 Y-9.142 E6.2824
G1 X40.657 Y-8.992 E6.29192
G1 X41.015 Y-8.472 E6.32342
G1 X41.306 Y-7.91 E6.35499
G1 X41.522 Y-7.316 E6.38652
G1 X41.663 Y-6.7 E6.41805
G1 X41.726 Y-5.825 E6.46182
G1 X41.677 Y-2.604 E6.62253
G1 X41.628 Y-1.974 E6.65406
G1 X41.499 Y-1.355 E6.6856
G1 X41.293 Y-.757 E6.71716
G1 X41.014 Y-.19 E6.74868
G1 X40.665 Y0.337 E6.78022
G1 X40.253 Y0.816 E6.81174
G1 X39.783 Y1.239 E6.84329
G1 X39.264 Y1.6 E6.87483
G1 X38.809 Y1.843 E6.90056
G1 X33.397 Y4.393 E7.19904
G1 X32.809 Y4.626 E7.23059
G1 X32.197 Y4.783 E7.26211
G1 X31.274 Y4.87 E7.30837
G1 X28.129 Y4.875 E7.46527
G1 X28.129 Y5.126 E7.47779
G1 X31.276 Y5.131 E7.6348
G1 X31.906 Y5.172 E7.6663
G1 X32.527 Y5.292 E7.69785
G1 X33.414 Y5.615 E7.74495
G1 X38.851 Y8.2 E8.0453
G1 X39.404 Y8.507 E8.07685
G1 X39.913 Y8.882 E8.1084
G1 X40.371 Y9.317 E8.13991
G1 X40.771 Y9.807 E8.17147
G1 X41.105 Y10.343 E8.20297
G1 X41.369 Y10.918 E8.23454
G1 X41.559 Y11.521 E8.26608
G1 X41.671 Y12.143 E8.29761
G1 X41.704 Y12.686 E8.32475
G1 X41.723 Y15.881 E8.48415
G1 X41.687 Y16.512 E8.51569
G1 X41.571 Y17.134 E8.54725
G1 X41.378 Y17.736 E8.57879
G1 X41.111 Y18.309 E8.61033
G1 X40.773 Y18.843 E8.64186
G1 X40.293 Y19.411 E8.67896
G1 X40.143 Y19.564 E8.68965
G1 X39.673 Y19.987 E8.7212
G1 X39.153 Y20.347 E8.75275
G1 X38.592 Y20.638 E8.78428
G1 X37.999 Y20.856 E8.8158
G1 X37.383 Y20.998 E8.84734
G1 X36.578 Y21.064 E8.88764
G1 X25.447 Y21.075 E9.44296
G1 X24.816 Y21.036 E9.47451
G1 X24.195 Y20.917 E9.50605
G1 X23.594 Y20.721 E9.53759
G1 X23.023 Y20.451 E9.5691
G1 X22.49 Y20.11 E9.60067
G1 X21.953 Y19.656 E9.63575
G1 X21.797 Y19.504 E9.64662
G1 X21.373 Y19.035 E9.67816
G1 X21.011 Y18.517 E9.70969
G1 X20.718 Y17.957 E9.74122
G1 X20.694 Y17.892 E9.74468
G1 X20.562 Y17.925 E9.75147
G1 X19.934 Y17.998 E9.78301
G1 X19.302 Y17.991 E9.81454
G1 X18.676 Y17.905 E9.84607
G1 X18.066 Y17.74 E9.87759
G1 X17.481 Y17.5 E9.90914
G1 X16.931 Y17.188 E9.94069
G1 X16.665 Y17.001 E9.95691
G1 X16.447 Y16.837 E9.97052
G1 X15.967 Y16.425 E10.00208
G1 X15.555 Y15.971 E10.03266
G1 X15.083 Y15.612 E10.06225
G1 X15.083 Y20.354 E10.29883
G1 X15.043 Y20.985 E10.33037
G1 X14.924 Y21.606 E10.36192
G1 X14.727 Y22.206 E10.39342
G1 X14.456 Y22.778 E10.425
G1 X14.116 Y23.31 E10.4565
G1 X13.879 Y23.608 E10.4755
G1 X13.549 Y23.993 E10.50079
G1 X13.108 Y24.446 E10.53234
G1 X12.614 Y24.84 E10.56386
G1 X12.074 Y25.168 E10.59538
G1 X11.496 Y25.425 E10.62694
G1 X10.891 Y25.608 E10.65847
G1 X10.268 Y25.712 E10.68999
G1 X9.636 Y25.738 E10.72154
G1 X9.407 Y25.718 E10.73301
G1 X9.402 Y26.296 E10.76185
G1 X9.356 Y26.927 E10.79341
G1 X9.231 Y27.546 E10.82492
G1 X9.029 Y28.145 E10.85646
G1 X8.753 Y28.714 E10.88801
G1 X8.408 Y29.243 E10.91952
G1 X7.998 Y29.725 E10.95109
G1 X7.388 Y30.262 E10.99163
G1 X7.251 Y30.364 E11.00015
G1 X6.721 Y30.708 E11.03168
G1 X6.152 Y30.983 E11.0632
G1 X5.553 Y31.184 E11.09473
G1 X4.933 Y31.308 E11.12627
G1 X4.26 Y31.353 E11.15992
G1 X-4.6 Y31.345 E11.60195
G1 X-5.23 Y31.304 E11.63345
G1 X-5.851 Y31.185 E11.66499
G1 X-6.452 Y30.988 E11.69655
G1 X-7.023 Y30.716 E11.7281
G1 X-7.555 Y30.375 E11.75963
G1 X-8.04 Y29.969 E11.79118
G1 X-8.469 Y29.506 E11.82267
G1 X-8.775 Y29.088 E11.84852
G1 X-8.922 Y28.864 E11.86188
G1 X-9.235 Y28.315 E11.89341
G1 X-9.476 Y27.73 E11.92498
G1 X-9.641 Y27.12 E11.95651
G1 X-9.728 Y26.494 E11.98804
G1 X-9.741 Y26 E12.01269
G1 X-9.695 Y24.104 E12.10731
G1 X-9.639 Y23.474 E12.13887
G1 X-9.505 Y22.856 E12.17041
G1 X-9.294 Y22.26 E12.20196
G1 X-9.009 Y21.696 E12.23348
G1 X-8.656 Y21.172 E12.265
G1 X-8.239 Y20.697 E12.29654
G1 X-7.765 Y20.278 E12.3281
G1 X-7.243 Y19.922 E12.35962
G1 X-6.813 Y19.695 E12.38388
G1 X-2.904 Y17.869 E12.59913
G1 X-2.944 Y17.851 E12.60132
G1 X-6.882 Y15.96 E12.81927
G1 X-7.434 Y15.651 E12.85083
G1 X-7.942 Y15.275 E12.88236
G1 X-8.398 Y14.838 E12.91387
G1 X-8.796 Y14.346 E12.94544
G1 X-9.128 Y13.809 E12.97694
G1 X-9.39 Y13.233 E13.00851
G1 X-9.578 Y12.63 E13.04002
G1 X-9.687 Y12.007 E13.07157
G1 X-9.718 Y11.49 E13.09741
G1 X-9.732 Y9.602 E13.19161
G1 X-9.697 Y8.971 E13.22314
G1 X-9.582 Y8.349 E13.25469
G1 X-9.39 Y7.747 E13.28622
G1 X-9.123 Y7.174 E13.31776
G1 X-8.838 Y6.712 E13.34484
G1 X-8.747 Y6.581 E13.3528
G1 X-8.355 Y6.086 E13.3843
G1 X-7.903 Y5.644 E13.41584
G1 X-7.398 Y5.263 E13.4474
G1 X-6.85 Y4.948 E13.47893
G1 X-6.266 Y4.706 E13.51047
G1 X-5.657 Y4.538 E13.54199
G1 X-5.123 Y4.462 E13.5689
G1 X-5.345 Y3.995 E13.5947
G0 F3600 X-5.006 Y3.775
G1 F900 X-5.087 Y3.522 E13.60795
G1 X-5.181 Y3.553 E13.61289
G1 X-5.777 Y3.665 E13.64314
G1 X-6.382 Y3.698 E13.67337
G1 X-6.987 Y3.651 E13.70365
G1 X-7.58 Y3.525 E13.73389
G1 X-8.151 Y3.322 E13.76413
G1 X-8.691 Y3.045 E13.7944
G1 X-9.111 Y2.762 E13.81967
G1 X-13.571 Y-.624 E14.09904
G1 X-14.028 Y-1.022 E14.12928
G1 X-14.43 Y-1.476 E14.15953
G1 X-14.898 Y-2.219 E14.20334
G1 X-14.969 Y-2.36 E14.21121
G1 X-15.205 Y-2.918 E14.24144
G1 X-15.366 Y-3.503 E14.27171
G1 X-15.448 Y-4.104 E14.30197
G1 X-15.46 Y-4.43 E14.31825
G1 X-15.459 Y-13.131 E14.75234
G1 X-15.419 Y-13.736 E14.78259
G1 X-15.3 Y-14.33 E14.81282
G1 X-15.103 Y-14.904 E14.84309
G1 X-14.977 Y-15.18 E14.85823
G1 X-14.869 Y-15.397 E14.87032
G1 X-14.564 Y-15.92 E14.90053
G1 X-14.192 Y-16.399 E14.93079
G1 X-13.53 Y-17.013 E14.97583
G1 X-9.105 Y-20.368 E15.25288
G1 X-8.599 Y-20.701 E15.2831
G1 X-8.053 Y-20.965 E15.31335
G1 X-7.478 Y-21.156 E15.34358
G1 X-6.882 Y-21.268 E15.37384
G1 X-6.276 Y-21.302 E15.40412
G1 X-5.672 Y-21.255 E15.43434
G1 X-5.092 Y-21.133 E15.46391
G1 X-4.964 Y-21.504 E15.48349
G1 X-4.694 Y-22.047 E15.51375
G1 X-4.354 Y-22.549 E15.54399
G1 X-3.951 Y-23.002 E15.57424
G1 X-3.373 Y-23.485 E15.61182
G1 X-3.156 Y-23.638 E15.62507
G1 X-2.638 Y-23.954 E15.65534
G1 X-2.084 Y-24.2 E15.68558
G1 X-1.502 Y-24.37 E15.71583
G1 X-.902 Y-24.462 E15.74612
G1 X-.503 Y-24.479 E15.76604
G1 X10.527 Y-24.475 E16.31633
G1 X11.132 Y-24.435 E16.34658
G1 X11.726 Y-24.315 E16.37681
G1 X12.3 Y-24.119 E16.40707
G1 X13.072 Y-23.706 E16.45075
G1 X13.254 Y-23.585 E16.46166
G1 X13.735 Y-23.216 E16.4919
G1 X14.165 Y-22.788 E16.52217
G1 X14.534 Y-22.307 E16.55242
G1 X14.836 Y-21.782 E16.58263
G1 X15.067 Y-21.221 E16.6129
G1 X15.222 Y-20.635 E16.64314
G1 X15.307 Y-19.776 E16.68621
G1 X15.322 Y-16.597 E16.84481
G1 X15.285 Y-15.992 E16.87505
G1 X15.168 Y-15.397 E16.9053
G1 X14.975 Y-14.822 E16.93556
G1 X14.707 Y-14.278 E16.96582
G1 X14.396 Y-13.807 E16.99398
G1 X14.28 Y-13.653 E17.0036
G1 X13.884 Y-13.194 E17.03384
G1 X13.431 Y-12.791 E17.06409
G1 X12.93 Y-12.451 E17.0943
G1 X12.552 Y-12.253 E17.11559
G1 X7.213 Y-9.761 E17.40954
G1 X6.647 Y-9.541 E17.43983
G1 X6.058 Y-9.398 E17.47007
G1 X5.273 Y-9.329 E17.50939
G1 X1.7 Y-9.324 E17.68764
G1 X1.737 Y-8.897 E17.70903
G1 X1.709 Y-8.292 E17.73924
G1 X1.707 Y-8.279 E17.7399
G1 X5.226 Y-8.278 E17.91546
G1 X5.831 Y-8.238 E17.94571
G1 X6.425 Y-8.118 E17.97594
G1 X7.164 Y-7.849 E18.01518
G1 X12.568 Y-5.335 E18.31253
G1 X13.1 Y-5.043 E18.34281
G1 X13.589 Y-4.685 E18.37305
G1 X14.002 Y-4.288 E18.40163
G1 X16.892 Y-6.483 E18.58268
G1 X17.398 Y-6.817 E18.61293
G1 X17.944 Y-7.081 E18.64319
G1 X18.519 Y-7.272 E18.67341
G1 X19.115 Y-7.385 E18.70368
G1 X19.72 Y-7.419 E18.73391
G1 X20.325 Y-7.373 E18.76418
G1 X20.891 Y-7.254 E18.79304
G1 X21.055 Y-7.729 E18.81811
G1 X21.327 Y-8.271 E18.84836
G1 X21.669 Y-8.773 E18.87867
G1 X22.172 Y-9.319 E18.9157
G1 X22.316 Y-9.452 E18.92548
G1 X22.787 Y-9.833 E18.95571
G1 X23.305 Y-10.149 E18.98598
G1 X23.86 Y-10.394 E19.01625
G1 X24.442 Y-10.564 E19.0465
G1 X25.041 Y-10.656 E19.07673
G1 X25.446 Y-10.673 E19.09695
G1 X36.618 Y-10.651 E19.65433
G1 X37.223 Y-10.61 E19.68458
G1 X37.817 Y-10.489 E19.71482
G1 X38.39 Y-10.292 E19.74505
G1 X38.933 Y-10.021 E19.77533
G1 X39.435 Y-9.681 E19.80558
G1 X39.888 Y-9.278 E19.83583
G1 X40.224 Y-8.895 E19.86125
G1 X40.342 Y-8.745 E19.87077
G1 X40.685 Y-8.245 E19.90102
G1 X40.959 Y-7.704 E19.93127
G1 X41.159 Y-7.132 E19.9615
G1 X41.283 Y-6.538 E19.99178
G1 X41.326 Y-5.831 E20.02712
G1 X41.277 Y-2.61 E20.18783
G1 X41.228 Y-2.006 E20.21806
G1 X41.1 Y-1.413 E20.24833
G1 X40.895 Y-.843 E20.27855
G1 X40.617 Y-.304 E20.30881
G1 X40.27 Y0.193 E20.33905
G1 X39.861 Y0.641 E20.36931
G1 X39.397 Y1.031 E20.39955
G1 X38.639 Y1.481 E20.44353
G1 X33.227 Y4.031 E20.74201
G1 X32.662 Y4.253 E20.77229
G1 X32.074 Y4.399 E20.80252
G1 X31.273 Y4.47 E20.84264
G1 X27.701 Y4.475 E21.02085
G1 X27.738 Y4.904 E21.04233
G1 X27.71 Y5.509 E21.07254
G1 X27.707 Y5.525 E21.07336
G1 X31.275 Y5.531 E21.25137
G1 X31.88 Y5.572 E21.28162
G1 X32.474 Y5.692 E21.31185
G1 X33.242 Y5.977 E21.35272
G1 X38.679 Y8.562 E21.65307
G1 X39.208 Y8.857 E21.68329
G1 X39.694 Y9.22 E21.71355
G1 X40.128 Y9.644 E21.74382
G1 X40.502 Y10.121 E21.77406
G1 X40.81 Y10.643 E21.8043
G1 X41.047 Y11.201 E21.83455
G1 X41.209 Y11.786 E21.86483
G1 X41.304 Y12.689 E21.91013
G1 X41.323 Y15.884 E22.06953
G1 X41.287 Y16.489 E22.09977
G1 X41.171 Y17.084 E22.13001
G1 X40.978 Y17.659 E22.16027
G1 X40.711 Y18.203 E22.19051
G1 X40.375 Y18.708 E22.22077
G1 X40.008 Y19.131 E22.24871
G1 X39.858 Y19.284 E22.2594
G1 X39.406 Y19.688 E22.28964
G1 X38.904 Y20.029 E22.31992
G1 X38.363 Y20.302 E22.35015
G1 X37.79 Y20.5 E22.3804
G1 X37.196 Y20.622 E22.41065
G1 X36.578 Y20.664 E22.44155
G1 X25.447 Y20.675 E22.99688
G1 X24.842 Y20.636 E23.02713
G1 X24.247 Y20.517 E23.0574
G1 X23.673 Y20.321 E23.08766
G1 X23.13 Y20.052 E23.11789
G1 X22.627 Y19.713 E23.14815
G1 X22.232 Y19.37 E23.17425
G1 X22.076 Y19.218 E23.18512
G1 X21.67 Y18.767 E23.2154
G1 X21.328 Y18.267 E23.24562
G1 X21.054 Y17.726 E23.27587
G1 X20.946 Y17.418 E23.29216
G1 X20.817 Y17.46 E23.29892
G1 X20.221 Y17.572 E23.32918
G1 X19.616 Y17.605 E23.35941
G1 X19.011 Y17.557 E23.38969
G1 X18.418 Y17.431 E23.41993
G1 X17.847 Y17.228 E23.45017
G1 X17.308 Y16.951 E23.4804
G1 X16.906 Y16.681 E23.50456
G1 X16.688 Y16.517 E23.51817
G1 X16.228 Y16.121 E23.54845
G1 X15.835 Y15.68 E23.57792
G1 X14.631 Y14.766 E23.65334
G1 X14.683 Y15.388 E23.68448
G1 X14.683 Y20.354 E23.93223
G1 X14.643 Y20.959 E23.96248
G1 X14.524 Y21.553 E23.9927
G1 X14.328 Y22.127 E24.02297
G1 X14.057 Y22.67 E24.05324
G1 X13.576 Y23.348 E24.09472
G1 X13.246 Y23.733 E24.12001
G1 X12.822 Y24.166 E24.15025
G1 X12.344 Y24.54 E24.18053
G1 X11.822 Y24.848 E24.21077
G1 X11.263 Y25.084 E24.24104
G1 X10.679 Y25.245 E24.27126
G1 X10.078 Y25.327 E24.30152
G1 X9.472 Y25.33 E24.33176
G1 X9.011 Y25.272 E24.35494
G1 X9.002 Y26.293 E24.40588
G1 X8.956 Y26.897 E24.4361
G1 X8.832 Y27.491 E24.46637
G1 X8.63 Y28.062 E24.49659
G1 X8.355 Y28.603 E24.52687
G1 X8.012 Y29.102 E24.55708
G1 X7.605 Y29.552 E24.58735
G1 X7.149 Y29.941 E24.61725
G1 X7.012 Y30.043 E24.62577
G1 X6.503 Y30.372 E24.65601
G1 X5.955 Y30.631 E24.68625
G1 X5.378 Y30.816 E24.71648
G1 X4.781 Y30.924 E24.74675
G1 X4.261 Y30.953 E24.77273
G1 X-4.599 Y30.945 E25.21476
G1 X-5.204 Y30.904 E25.24501
G1 X-5.798 Y30.785 E25.27523
G1 X-6.372 Y30.588 E25.30551
G1 X-6.915 Y30.317 E25.33579
G1 X-7.417 Y29.978 E25.36601
G1 X-7.87 Y29.575 E25.39626
G1 X-8.441 Y28.869 E25.44156
G1 X-8.588 Y28.645 E25.45492
G1 X-8.886 Y28.117 E25.48517
G1 X-9.113 Y27.555 E25.51541
G1 X-9.263 Y26.967 E25.54569
G1 X-9.336 Y26.365 E25.57594
G1 X-9.341 Y26.009 E25.5937
G1 X-9.295 Y24.113 E25.68832
G1 X-9.24 Y23.51 E25.71853
G1 X-9.106 Y22.918 E25.74881
G1 X-8.896 Y22.349 E25.77907
G1 X-8.613 Y21.813 E25.80931
G1 X-8.262 Y21.319 E25.83955
G1 X-7.849 Y20.875 E25.8698
