;Generated by Cura LulzBot Edition GCodeWriter Version: 3.6.36
;FLAVOR:Marlin
;TIME:6633
;Filament used: 3.48167m
;Layer height: 0.2
;Generated with Cura_SteamEngine 3.6.36-win10
M82 ;absolute extrusion mode
M140 S25      ;Start heating bed
M104 S175          ;Start preheating hotend
M190 S25      ;Wait for bed to reach temp
M104 S220    ;Start heating hotend
;G92 E0                                        ;Reset extruder
G28                                           ;Home all axes

;G0 Z12                                        ;move to close of bottom
G32                                           ;ABL probing
M420 S1                                       ;Load and use bed leveling mesh
M109 S220    ;Wait for hotend to reach printing temp
G92 E0                                        ;Reset extruder
G0 Z12 F3000                                  ;Move Z up to safe height
M221 S100 T0
G92 E0
G1 F30000 E-4.1
;LAYER_COUNT:240
;LAYER:0
M107
G0 F3600 X-.188 Y-13.126 Z0.3
;TYPE:SKIRT
G1 F30000 E0
G1 F900 X1.763 Y-13.054 E0.0974
G1 X2.391 Y-12.991 E0.12889
G1 X4.19 Y-12.695 E0.21985
G1 X4.649 Y-12.597 E0.24327
G1 X5.577 Y-12.353 E0.29114
G1 X6.009 Y-12.218 E0.31372
G1 X7.657 Y-11.621 E0.40117
G1 X8.059 Y-11.455 E0.42286
G1 X8.923 Y-11.054 E0.47039
G1 X9.331 Y-10.841 E0.49335
G1 X10.798 Y-9.988 E0.57801
G1 X11.383 Y-9.59 E0.61331
G1 X13.402 Y-7.996 E0.74165
G1 X13.968 Y-7.474 E0.78006
G1 X15.329 Y-6.008 E0.87986
G1 X15.697 Y-5.563 E0.90867
G1 X16.566 Y-4.378 E0.98198
G1 X16.905 Y-3.848 E1.01337
G1 X17.503 Y-2.771 E1.07483
G1 X17.775 Y-2.2 E1.10638
G1 X17.972 Y-1.6 E1.13789
G1 X18.097 Y-.938 E1.1715
G1 X18.144 Y-.545 E1.19125
G1 X18.179 Y0.086 E1.22277
G1 X18.1 Y0.932 E1.26517
G1 X18.037 Y1.283 E1.28296
G1 X17.887 Y1.897 E1.31449
G1 X17.66 Y2.487 E1.34603
G1 X17.441 Y2.908 E1.3697
G1 X16.773 Y4.06 E1.43614
G1 X16.411 Y4.601 E1.46862
G1 X15.317 Y6.023 E1.55813
G1 X14.854 Y6.545 E1.59294
G1 X13.098 Y8.266 E1.7156
G1 X12.47 Y8.788 E1.75635
G1 X10.528 Y10.151 E1.87471
G1 X9.844 Y10.554 E1.91432
G1 X7.647 Y11.623 E2.03622
G1 X6.875 Y11.922 E2.07752
G1 X4.532 Y12.614 E2.1994
G1 X3.719 Y12.782 E2.24082
G1 X1.201 Y13.088 E2.36737
G1 X0.557 Y13.125 E2.39955
G1 X-.774 Y13.114 E2.46596
G1 X-1.039 Y13.105 E2.47919
G1 X-24.68 Y11.656 E3.66085
G1 X-25.307 Y11.577 E3.69238
G1 X-26.129 Y11.347 E3.73497
G1 X-26.924 Y11.049 E3.77733
G1 X-27.501 Y10.79 E3.80888
G1 X-28.04 Y10.46 E3.84041
G1 X-28.534 Y10.066 E3.87193
G1 X-28.853 Y9.748 E3.89441
G1 X-29.333 Y9.225 E3.92982
G1 X-29.73 Y8.733 E3.96136
G1 X-30.062 Y8.195 E3.9929
G1 X-30.346 Y7.558 E4.0277
G1 X-30.558 Y6.977 E4.05855
G1 X-30.737 Y6.371 E4.09008
G1 X-30.838 Y5.747 E4.12162
G1 X-30.861 Y5.281 E4.14489
G1 X-30.898 Y-4.869 E4.65128
G1 X-30.847 Y-5.601 E4.68789
G1 X-30.769 Y-6.142 E4.71516
G1 X-30.639 Y-6.76 E4.74667
G1 X-30.437 Y-7.348 E4.77768
G1 X-30.269 Y-7.752 E4.79951
G1 X-29.99 Y-8.319 E4.83104
G1 X-29.61 Y-8.887 E4.86513
G1 X-29.319 Y-9.264 E4.88889
G1 X-28.902 Y-9.739 E4.92043
G1 X-28.26 Y-10.283 E4.96241
G1 X-27.868 Y-10.562 E4.98642
G1 X-27.331 Y-10.895 E5.01794
G1 X-26.511 Y-11.244 E5.0624
G1 X-26.002 Y-11.409 E5.0891
G1 X-25.389 Y-11.566 E5.12067
G1 X-24.766 Y-11.644 E5.15199
G1 X-.678 Y-13.12 E6.356
G1 X-.188 Y-13.126 E6.38045
G0 F3600 X-.202 Y-12.726
G1 F900 X1.749 Y-12.654 E6.47785
G1 X2.326 Y-12.596 E6.50678
G1 X4.125 Y-12.3 E6.59774
G1 X4.548 Y-12.21 E6.61932
G1 X5.476 Y-11.966 E6.66719
G1 X5.873 Y-11.842 E6.68794
G1 X7.521 Y-11.245 E6.77539
G1 X7.891 Y-11.093 E6.79534
G1 X8.755 Y-10.692 E6.84286
G1 X9.13 Y-10.496 E6.86397
G1 X10.597 Y-9.643 E6.94864
G1 X11.135 Y-9.276 E6.98113
G1 X13.154 Y-7.682 E7.10946
G1 X13.675 Y-7.202 E7.14481
G1 X15.036 Y-5.736 E7.24461
G1 X15.374 Y-5.326 E7.27111
G1 X16.243 Y-4.141 E7.34443
G1 X16.556 Y-3.654 E7.37331
G1 X17.154 Y-2.577 E7.43477
G1 X17.412 Y-2.029 E7.46499
G1 X17.597 Y-1.451 E7.49526
G1 X17.699 Y-.89 E7.52371
G1 X17.746 Y-.497 E7.54346
G1 X17.779 Y0.108 E7.57369
G1 X17.707 Y0.862 E7.61148
G1 X17.644 Y1.213 E7.62927
G1 X17.497 Y1.801 E7.6595
G1 X17.275 Y2.365 E7.68974
G1 X17.095 Y2.707 E7.70903
G1 X16.427 Y3.859 E7.77546
G1 X16.094 Y4.357 E7.80535
G1 X15 Y5.779 E7.89486
G1 X14.574 Y6.259 E7.92688
G1 X12.818 Y7.98 E8.04955
G1 X12.241 Y8.46 E8.08699
G1 X10.299 Y9.823 E8.20536
G1 X9.669 Y10.194 E8.24183
G1 X7.472 Y11.263 E8.36373
G1 X6.762 Y11.539 E8.40173
G1 X4.419 Y12.231 E8.52362
G1 X3.671 Y12.385 E8.56172
G1 X1.153 Y12.691 E8.68827
G1 X0.56 Y12.725 E8.7179
G1 X-.771 Y12.714 E8.78431
G1 X-1.014 Y12.705 E8.79644
G1 X-24.655 Y11.256 E9.97811
G1 X-25.257 Y11.179 E10.00838
G1 X-25.989 Y10.972 E10.04634
G1 X-26.784 Y10.674 E10.08869
G1 X-27.336 Y10.425 E10.11891
G1 X-27.851 Y10.104 E10.14918
G1 X-28.319 Y9.719 E10.17942
G1 X-28.558 Y9.477 E10.19638
G1 X-29.038 Y8.954 E10.2318
G1 X-29.418 Y8.482 E10.26203
G1 X-29.732 Y7.963 E10.29229
G1 X-29.97 Y7.421 E10.32183
G1 X-30.182 Y6.84 E10.35268
G1 X-30.352 Y6.258 E10.38293
G1 X-30.444 Y5.658 E10.41322
G1 X-30.461 Y5.28 E10.43209
G1 X-30.498 Y-4.87 E10.93848
G1 X-30.451 Y-5.543 E10.97214
G1 X-30.373 Y-6.084 E10.99941
G1 X-30.247 Y-6.678 E11.0297
G1 X-30.067 Y-7.194 E11.05697
G1 X-29.899 Y-7.598 E11.0788
G1 X-29.63 Y-8.142 E11.10908
G1 X-29.293 Y-8.643 E11.1392
G1 X-29.002 Y-9.02 E11.16296
G1 X-28.601 Y-9.474 E11.19318
G1 X-28.028 Y-9.957 E11.23057
G1 X-27.636 Y-10.236 E11.25457
G1 X-27.12 Y-10.554 E11.28481
G1 X-26.387 Y-10.864 E11.32452
G1 X-25.878 Y-11.029 E11.35121
G1 X-25.291 Y-11.177 E11.38141
G1 X-24.741 Y-11.244 E11.40906
G1 X-.653 Y-12.72 E12.61307
G1 X-.202 Y-12.726 E12.63557
G0 F3600 X-.217 Y-12.326
G1 F900 X1.734 Y-12.254 E12.73297
G1 X2.261 Y-12.201 E12.7594
G1 X4.06 Y-11.905 E12.85035
G1 X4.446 Y-11.823 E12.87004
G1 X5.374 Y-11.579 E12.91791
G1 X5.737 Y-11.466 E12.93688
G1 X7.385 Y-10.869 E13.02433
G1 X7.722 Y-10.73 E13.04252
G1 X8.586 Y-10.329 E13.09004
G1 X8.929 Y-10.15 E13.10934
G1 X10.396 Y-9.297 E13.194
G1 X10.888 Y-8.962 E13.2237
G1 X12.907 Y-7.368 E13.35203
G1 X13.382 Y-6.93 E13.38427
G1 X14.743 Y-5.464 E13.48407
G1 X15.052 Y-5.09 E13.50827
G1 X15.921 Y-3.905 E13.58158
G1 X16.206 Y-3.46 E13.60795
G1 X16.804 Y-2.383 E13.66941
G1 X17.05 Y-1.858 E13.69833
G1 X17.221 Y-1.305 E13.72721
G1 X17.302 Y-.843 E13.75061
G1 X17.349 Y-.45 E13.77036
G1 X17.378 Y0.129 E13.79928
G1 X17.313 Y0.791 E13.83247
G1 X17.25 Y1.142 E13.85026
G1 X17.109 Y1.704 E13.87917
G1 X16.891 Y2.241 E13.90808
G1 X16.749 Y2.507 E13.92312
G1 X16.081 Y3.659 E13.98956
G1 X15.777 Y4.113 E14.01682
G1 X14.683 Y5.535 E14.10633
G1 X14.294 Y5.974 E14.13559
G1 X12.538 Y7.695 E14.25826
G1 X12.011 Y8.133 E14.29245
G1 X10.069 Y9.496 E14.41081
G1 X9.494 Y9.835 E14.44412
G1 X7.297 Y10.904 E14.56601
G1 X6.649 Y11.155 E14.60068
G1 X4.306 Y11.847 E14.72257
G1 X3.623 Y11.988 E14.75736
G1 X1.105 Y12.294 E14.88391
G1 X0.563 Y12.325 E14.91099
G1 X-.768 Y12.314 E14.9774
G1 X-.99 Y12.306 E14.98848
G1 X-24.631 Y10.857 E16.17015
G1 X-25.205 Y10.782 E16.19903
G1 X-25.848 Y10.598 E16.2324
G1 X-26.643 Y10.3 E16.27475
G1 X-27.17 Y10.06 E16.30364
G1 X-27.659 Y9.749 E16.33256
G1 X-28.263 Y9.207 E16.37304
G1 X-28.743 Y8.684 E16.40846
G1 X-29.105 Y8.231 E16.43739
G1 X-29.4 Y7.733 E16.46627
G1 X-29.595 Y7.284 E16.49069
G1 X-29.807 Y6.703 E16.52154
G1 X-29.967 Y6.146 E16.55046
G1 X-30.05 Y5.573 E16.57934
G1 X-30.061 Y5.278 E16.59407
G1 X-30.098 Y-4.872 E17.10046
G1 X-30.055 Y-5.486 E17.13117
G1 X-29.977 Y-6.027 E17.15844
G1 X-29.855 Y-6.594 E17.18737
G1 X-29.698 Y-7.041 E17.21101
G1 X-29.53 Y-7.445 E17.23284
G1 X-29.271 Y-7.963 E17.26173
G1 X-28.977 Y-8.398 E17.28792
G1 X-28.686 Y-8.775 E17.31168
G1 X-28.301 Y-9.208 E17.34059
G1 X-27.796 Y-9.631 E17.37346
G1 X-27.404 Y-9.91 E17.39746
G1 X-26.91 Y-10.212 E17.42635
G1 X-26.264 Y-10.483 E17.4613
G1 X-25.755 Y-10.648 E17.48799
G1 X-25.193 Y-10.789 E17.5169
G1 X-24.717 Y-10.845 E17.54081
G1 X-.629 Y-12.321 E18.74482
G1 X-.217 Y-12.326 E18.76538
G0 F3600 X-.232 Y-11.926
G1 F900 X1.719 Y-11.854 E18.86278
G1 X2.196 Y-11.807 E18.88669
G1 X3.995 Y-11.511 E18.97765
G1 X4.344 Y-11.436 E18.99546
G1 X5.272 Y-11.192 E19.04333
G1 X5.6 Y-11.09 E19.06047
G1 X7.248 Y-10.493 E19.14792
G1 X7.554 Y-10.367 E19.16443
G1 X8.418 Y-9.966 E19.21195
G1 X8.728 Y-9.804 E19.2294
G1 X10.195 Y-8.951 E19.31406
G1 X10.64 Y-8.649 E19.34089
G1 X12.659 Y-7.055 E19.46923
G1 X13.089 Y-6.657 E19.49846
G1 X14.45 Y-5.191 E19.59826
G1 X14.729 Y-4.853 E19.62012
G1 X15.598 Y-3.668 E19.69344
G1 X15.856 Y-3.266 E19.71727
G1 X16.454 Y-2.189 E19.77873
G1 X16.686 Y-1.689 E19.80623
G1 X16.843 Y-1.161 E19.83371
G1 X16.905 Y-.795 E19.85223
G1 X16.952 Y-.402 E19.87198
G1 X16.978 Y0.148 E19.89945
G1 X16.919 Y0.72 E19.92813
G1 X16.856 Y1.071 E19.94593
G1 X16.72 Y1.605 E19.97342
G1 X16.403 Y2.306 E20.0118
G1 X15.735 Y3.458 E20.07824
G1 X15.46 Y3.869 E20.10291
G1 X14.366 Y5.291 E20.19242
G1 X14.014 Y5.688 E20.21889
G1 X12.258 Y7.409 E20.34156
G1 X11.781 Y7.805 E20.37249
G1 X9.839 Y9.168 E20.49085
G1 X9.319 Y9.475 E20.52098
G1 X7.122 Y10.544 E20.64288
G1 X6.535 Y10.771 E20.67427
G1 X4.192 Y11.463 E20.79616
G1 X3.574 Y11.591 E20.82765
G1 X1.056 Y11.897 E20.95419
G1 X0.567 Y11.925 E20.97863
G1 X-.764 Y11.914 E21.04504
G1 X-.965 Y11.907 E21.05507
G1 X-24.606 Y10.458 E22.23674
G1 X-25.153 Y10.384 E22.26428
G1 X-25.708 Y10.223 E22.29311
G1 X-26.503 Y9.925 E22.33546
G1 X-27.003 Y9.695 E22.36292
G1 X-27.465 Y9.395 E22.3904
G1 X-27.969 Y8.936 E22.42441
G1 X-28.449 Y8.413 E22.45983
G1 X-28.791 Y7.982 E22.48728
G1 X-29.067 Y7.505 E22.51477
G1 X-29.219 Y7.147 E22.53418
G1 X-29.431 Y6.566 E22.56503
G1 X-29.582 Y6.036 E22.59253
G1 X-29.661 Y5.277 E22.6306
G1 X-29.698 Y-4.873 E23.13699
G1 X-29.659 Y-5.429 E23.16479
G1 X-29.581 Y-5.97 E23.19206
G1 X-29.463 Y-6.508 E23.21954
G1 X-29.329 Y-6.887 E23.2396
G1 X-29.161 Y-7.291 E23.26143
G1 X-28.913 Y-7.783 E23.28892
G1 X-28.66 Y-8.154 E23.31132
G1 X-28.369 Y-8.531 E23.33508
G1 X-28.002 Y-8.942 E23.36257
G1 X-27.564 Y-9.305 E23.39095
G1 X-27.172 Y-9.584 E23.41495
G1 X-26.702 Y-9.87 E23.4424
G1 X-26.141 Y-10.103 E23.47271
G1 X-25.632 Y-10.268 E23.4994
G1 X-25.097 Y-10.399 E23.52688
G1 X-24.692 Y-10.446 E23.54723
G1 X-.604 Y-11.922 E24.75123
G1 X-.232 Y-11.926 E24.76979
G0 F3600 X-.247 Y-11.527
G1 F900 X1.704 Y-11.455 E24.8672
G1 X2.131 Y-11.412 E24.88861
G1 X3.93 Y-11.116 E24.97957
G1 X4.243 Y-11.049 E24.99554
G1 X5.171 Y-10.805 E25.04341
G1 X5.464 Y-10.714 E25.05871
G1 X7.112 Y-10.117 E25.14616
G1 X7.385 Y-10.004 E25.1609
G1 X8.249 Y-9.603 E25.20842
G1 X8.527 Y-9.458 E25.22407
G1 X9.994 Y-8.605 E25.30873
G1 X10.392 Y-8.335 E25.33272
G1 X12.411 Y-6.741 E25.46106
G1 X12.796 Y-6.385 E25.48722
G1 X14.157 Y-4.919 E25.58702
G1 X14.407 Y-4.617 E25.60658
G1 X15.276 Y-3.432 E25.67989
G1 X15.507 Y-3.071 E25.70127
G1 X16.105 Y-1.994 E25.76273
G1 X16.322 Y-1.521 E25.7887
G1 X16.464 Y-1.019 E25.81472
G1 X16.508 Y-.748 E25.82842
G1 X16.555 Y-.355 E25.84817
G1 X16.577 Y0.166 E25.87418
G1 X16.526 Y0.65 E25.89846
G1 X16.463 Y1.001 E25.91626
G1 X16.331 Y1.505 E25.94225
G1 X16.057 Y2.106 E25.9752
G1 X15.389 Y3.258 E26.04164
G1 X15.143 Y3.625 E26.06368
G1 X14.049 Y5.047 E26.15319
G1 X13.734 Y5.402 E26.17687
G1 X11.978 Y7.123 E26.29954
G1 X11.551 Y7.478 E26.32724
G1 X9.609 Y8.841 E26.44561
G1 X9.144 Y9.115 E26.47253
G1 X6.947 Y10.184 E26.59443
G1 X6.422 Y10.388 E26.62253
G1 X4.079 Y11.08 E26.74441
G1 X3.526 Y11.194 E26.77258
G1 X1.008 Y11.5 E26.89913
G1 X0.57 Y11.525 E26.92102
G1 X-.761 Y11.514 E26.98743
G1 X-.941 Y11.508 E26.99641
G1 X-24.582 Y10.059 E28.17808
G1 X-25.098 Y9.987 E28.20407
G1 X-25.567 Y9.849 E28.22846
G1 X-26.362 Y9.551 E28.27082
G1 X-26.835 Y9.331 E28.29684
G1 X-27.268 Y9.041 E28.32284
G1 X-27.674 Y8.666 E28.35042
G1 X-28.154 Y8.143 E28.38583
G1 X-28.476 Y7.733 E28.41184
G1 X-28.731 Y7.279 E28.43782
G1 X-28.843 Y7.009 E28.45241
G1 X-29.055 Y6.428 E28.48326
G1 X-29.196 Y5.927 E28.50923
G1 X-29.261 Y5.275 E28.54192
G1 X-29.298 Y-4.875 E29.04831
G1 X-29.263 Y-5.372 E29.07316
G1 X-29.185 Y-5.913 E29.10043
G1 X-29.072 Y-6.422 E29.12644
G1 X-28.959 Y-6.733 E29.14295
G1 X-28.791 Y-7.137 E29.16478
G1 X-28.555 Y-7.602 E29.1908
G1 X-28.343 Y-7.909 E29.20941
G1 X-28.052 Y-8.286 E29.23317
G1 X-27.703 Y-8.673 E29.25917
G1 X-27.333 Y-8.979 E29.28312
G1 X-26.941 Y-9.258 E29.30713
G1 X-26.494 Y-9.527 E29.33316
G1 X-26.017 Y-9.722 E29.35887
G1 X-25.508 Y-9.887 E29.38556
G1 X-25.002 Y-10.01 E29.41154
G1 X-24.668 Y-10.047 E29.42831
G1 X-.58 Y-11.523 E30.63231
G1 X-.247 Y-11.527 E30.64893
G0 F3600 X-.261 Y-11.127
G1 F900 X1.69 Y-11.055 E30.74633
G1 X2.066 Y-11.017 E30.76519
G1 X3.865 Y-10.721 E30.85615
G1 X4.141 Y-10.662 E30.87023
G1 X5.069 Y-10.418 E30.9181
G1 X5.328 Y-10.338 E30.93162
G1 X6.976 Y-9.741 E31.01907
G1 X7.217 Y-9.641 E31.03209
G1 X8.081 Y-9.24 E31.07961
G1 X8.326 Y-9.112 E31.0934
G1 X9.793 Y-8.259 E31.17806
G1 X10.144 Y-8.021 E31.19922
G1 X12.163 Y-6.427 E31.32756
G1 X12.503 Y-6.113 E31.35065
G1 X13.864 Y-4.647 E31.45044
G1 X14.084 Y-4.38 E31.4677
G1 X14.953 Y-3.195 E31.54102
G1 X15.157 Y-2.877 E31.55987
G1 X15.755 Y-1.8 E31.62133
G1 X15.957 Y-1.354 E31.64575
G1 X16.111 Y-.7 E31.67927
G1 X16.158 Y-.307 E31.69902
G1 X16.176 Y0.182 E31.72343
G1 X16.132 Y0.579 E31.74336
G1 X16.069 Y0.93 E31.76115
G1 X15.943 Y1.403 E31.78557
G1 X15.711 Y1.905 E31.81316
G1 X15.043 Y3.057 E31.8796
G1 X14.826 Y3.381 E31.89905
G1 X13.732 Y4.803 E31.98856
G1 X13.454 Y5.117 E32.00949
G1 X11.698 Y6.838 E32.13215
G1 X11.321 Y7.151 E32.1566
G1 X9.379 Y8.514 E32.27497
G1 X8.969 Y8.756 E32.29872
G1 X6.772 Y9.825 E32.42062
G1 X6.309 Y10.004 E32.44538
G1 X3.966 Y10.696 E32.56727
G1 X3.478 Y10.797 E32.59213
G1 X0.96 Y11.103 E32.71868
G1 X0.573 Y11.125 E32.73801
G1 X-.758 Y11.114 E32.80442
G1 X-.917 Y11.108 E32.81236
G1 X-24.558 Y9.659 E33.99403
G1 X-25.042 Y9.59 E34.01842
G1 X-25.427 Y9.474 E34.03848
G1 X-26.222 Y9.176 E34.08084
G1 X-26.665 Y8.968 E34.10525
G1 X-27.068 Y8.69 E34.12968
G1 X-27.379 Y8.396 E34.15103
G1 X-27.859 Y7.873 E34.18644
G1 X-28.16 Y7.486 E34.2109
G1 X-28.467 Y6.872 E34.24515
G1 X-28.679 Y6.291 E34.27601
G1 X-28.809 Y5.819 E34.30043
G1 X-28.861 Y5.274 E34.32775
G1 X-28.898 Y-4.876 E34.83414
G1 X-28.867 Y-5.315 E34.85609
G1 X-28.789 Y-5.856 E34.88336
G1 X-28.68 Y-6.333 E34.90777
G1 X-28.59 Y-6.58 E34.92089
G1 X-28.422 Y-6.984 E34.94272
G1 X-28.198 Y-7.419 E34.96713
G1 X-28.027 Y-7.665 E34.98207
G1 X-27.736 Y-8.042 E35.00583
G1 X-27.406 Y-8.404 E35.03027
G1 X-27.101 Y-8.653 E35.04992
G1 X-26.709 Y-8.932 E35.07392
G1 X-26.288 Y-9.183 E35.09837
G1 X-25.894 Y-9.342 E35.11957
G1 X-25.385 Y-9.507 E35.14627
G1 X-24.909 Y-9.619 E35.17066
G1 X-24.643 Y-9.647 E35.18401
G1 X-.555 Y-11.123 E36.38802
G1 X-.261 Y-11.127 E36.40269
G0 F3600 X-.276 Y-10.727
G1 F900 X1.675 Y-10.655 E36.50009
G1 X2.001 Y-10.623 E36.51643
G1 X3.8 Y-10.327 E36.60739
G1 X4.039 Y-10.276 E36.61958
G1 X4.967 Y-10.032 E36.66745
G1 X5.192 Y-9.962 E36.67921
G1 X6.84 Y-9.365 E36.76666
G1 X7.049 Y-9.278 E36.77795
G1 X7.913 Y-8.877 E36.82547
G1 X8.125 Y-8.767 E36.83739
G1 X9.592 Y-7.914 E36.92205
G1 X9.896 Y-7.707 E36.9404
G1 X11.915 Y-6.113 E37.06874
G1 X12.209 Y-5.841 E37.08872
G1 X13.57 Y-4.375 E37.18852
G1 X13.762 Y-4.144 E37.2035
G1 X14.631 Y-2.959 E37.27682
G1 X14.807 Y-2.683 E37.29315
G1 X15.405 Y-1.606 E37.35461
G1 X15.591 Y-1.19 E37.37734
G1 X15.714 Y-.653 E37.40482
G1 X15.761 Y-.26 E37.42457
G1 X15.775 Y0.196 E37.44733
G1 X15.738 Y0.508 E37.46301
G1 X15.675 Y0.859 E37.4808
G1 X15.556 Y1.299 E37.50354
G1 X15.365 Y1.704 E37.52588
G1 X14.697 Y2.856 E37.59232
G1 X14.509 Y3.137 E37.60918
G1 X13.415 Y4.559 E37.69869
G1 X13.174 Y4.831 E37.71682
G1 X11.418 Y6.552 E37.83949
G1 X11.092 Y6.823 E37.86064
G1 X9.15 Y8.186 E37.97901
