; HEADER_BLOCK_START
; generated by OrcaSlicer 2.1.1 on 2024-07-02 at 13:55:59
; total layer number: 7
; filament_density: 1.24
; filament_diameter: 1.75
; max_z_height: 1.50
; HEADER_BLOCK_END

; THUMBNAIL_BLOCK_START

;
; THUMBNAIL_BLOCK_END

; THUMBNAIL_BLOCK_START

;
; THUMBNAIL_BLOCK_END

; external perimeters extrusion width = 0.40mm
; perimeters extrusion width = 0.45mm
; infill extrusion width = 0.45mm
; solid infill extrusion width = 0.48mm
; top infill extrusion width = 0.48mm
; first layer extrusion width = 0.50mm

; external perimeters extrusion width = 0.40mm
; perimeters extrusion width = 0.45mm
; infill extrusion width = 0.45mm
; solid infill extrusion width = 0.48mm
; top infill extrusion width = 0.48mm
; first layer extrusion width = 0.50mm

; external perimeters extrusion width = 0.40mm
; perimeters extrusion width = 0.45mm
; infill extrusion width = 0.45mm
; solid infill extrusion width = 0.48mm
; top infill extrusion width = 0.48mm
; first layer extrusion width = 0.50mm

; external perimeters extrusion width = 0.40mm
; perimeters extrusion width = 0.45mm
; infill extrusion width = 0.45mm
; solid infill extrusion width = 0.48mm
; top infill extrusion width = 0.48mm
; first layer extrusion width = 0.50mm

; external perimeters extrusion width = 0.40mm
; perimeters extrusion width = 0.45mm
; infill extrusion width = 0.45mm
; solid infill extrusion width = 0.48mm
; top infill extrusion width = 0.48mm
; first layer extrusion width = 0.50mm

; external perimeters extrusion width = 0.40mm
; perimeters extrusion width = 0.45mm
; infill extrusion width = 0.45mm
; solid infill extrusion width = 0.48mm
; top infill extrusion width = 0.48mm
; first layer extrusion width = 0.50mm

; external perimeters extrusion width = 0.40mm
; perimeters extrusion width = 0.45mm
; infill extrusion width = 0.45mm
; solid infill extrusion width = 0.48mm
; top infill extrusion width = 0.48mm
; first layer extrusion width = 0.50mm

; external perimeters extrusion width = 0.40mm
; perimeters extrusion width = 0.45mm
; infill extrusion width = 0.45mm
; solid infill extrusion width = 0.48mm
; top infill extrusion width = 0.48mm
; first layer extrusion width = 0.50mm

; external perimeters extrusion width = 0.40mm
; perimeters extrusion width = 0.45mm
; infill extrusion width = 0.45mm
; solid infill extrusion width = 0.48mm
; top infill extrusion width = 0.48mm
; first layer extrusion width = 0.50mm

; EXECUTABLE_BLOCK_START

M201 X20000 Y20000 Z500 E5000
M203 X300 Y300 Z10 E25
M204 P20000 R5000 T20000
M205 X9.00 Y9.00 Z0.20 E2.50 ; sets the jerk limits, mm/sec
M106 S0
M106 P2 S0
M104 S215 ; set nozzle temperature
;TYPE:Custom
G90
G21
M83 ; use relative distances for extrusion
; filament start gcode
M106 S0
M106 P2 S0
;LAYER_CHANGE
;Z:0.3
;HEIGHT:0.3
;BEFORE_LAYER_CHANGE
;0.3
G92 E0

G1 E-.8 F1800
;AFTER_LAYER_CHANGE
;0.3
;_SET_FAN_SPEED_CHANGING_LAYER
M204 S500
G1 Z.4 F21000
G1 X-50.893 Y-27.149
G1 Z.4
G1 Z.3
G1 E.8 F1800
;TYPE:Inner wall
;WIDTH:0.5
G1 F300
G1 X-50.905 Y-27.271 E.00525
G1 X-51.065 Y-27.641 E.01718
G1 X-51.314 Y-27.903 E.0154
G1 X-51.615 Y-28.062 E.01447
G1 X-51.968 Y-28.121 E.01525
G1 X-60.879 Y-28.121 E.37958
G1 X-60.879 Y-45.879 E.75642
G1 X-23.121 Y-45.879 E1.60835
G1 X-23.121 Y-28.121 E.75642
G1 X-32.168 Y-28.121 E.38538
G1 X-32.545 Y-27.993 E.01694
G1 X-32.857 Y-27.743 E.01705
G1 X-33.052 Y-27.415 E.01627
G1 X-33.121 Y-27.032 E.01655
G1 X-33.121 Y-18.121 E.37958
G1 X-50.879 Y-18.121 E.75642

G1 X-50.879 Y-27 E.37821
G1 X-50.889 Y-27.109 E.00466
G1 X-51.327 Y-27.097 F21000
G1 F300
G1 X-51.342 Y-27.22 E.00528
G1 X-51.473 Y-27.459 E.0116
G1 X-51.707 Y-27.631 E.01239
G1 X-51.968 Y-27.686 E.01135
G1 X-61.314 Y-27.686 E.39814
G1 X-61.314 Y-46.314 E.79353
G1 X-22.686 Y-46.314 E1.64547

G1 X-22.686 Y-27.686 E.79353
G1 X-32.119 Y-27.686 E.40185
G1 X-32.424 Y-27.555 E.01413
G1 X-32.611 Y-27.336 E.01225
G1 X-32.686 Y-27.032 E.01333
G1 X-32.686 Y-17.686 E.39814

G1 X-51.314 Y-17.686 E.79353
G1 X-51.314 Y-27 E.39676
G1 X-51.322 Y-27.057 E.00246
G1 X-51.75 Y-27.032 F21000
;TYPE:Outer wall
G1 F300
G1 X-51.813 Y-27.186 E.00707
G1 X-51.968 Y-27.25 E.00714
G1 X-61.75 Y-27.25 E.41669
G1 X-61.75 Y-46.75 E.83064
G1 X-22.25 Y-46.75 E1.68258
G1 X-22.25 Y-27.25 E.83064

G1 X-32.032 Y-27.25 E.41669
G1 X-32.187 Y-27.186 E.00714
G1 X-32.25 Y-27.032 E.00707
G1 X-32.25 Y-17.25 E.41669
G1 X-51.75 Y-17.25 E.83064
G1 X-51.75 Y-26.992 E.41499
G1 E-.56 F1800
;WIPE_START
G1 F600
G1 X-51.813 Y-27.186 E-.04882
G1 X-51.968 Y-27.25 E-.04021
G1 X-52.597 Y-27.25 E-.15097
;WIPE_END
G1 Z.7 F21000
G1 X-52.597 Y-27.654 Z.7
G1 X-51.347 Y-27.653
G1 X-32.653 Y-17.653
G1 X-32.654 Y-19.137
G1 X-33.252 Y-19.137
G1 Z.3
G1 E.8 F1800
;TYPE:Bottom surface
;WIDTH:0.501988
G1 F4800
G1 X-33.941 Y-18.448 E.0417
G1 X-34.56 Y-18.448 E.02648
G1 X-33.447 Y-19.56 E.0673
G1 X-33.447 Y-20.179 E.02649
G1 X-35.178 Y-18.448 E.10477
G1 X-35.797 Y-18.448 E.02648
G1 X-33.447 Y-20.798 E.14224
G1 X-33.447 Y-21.417 E.02649
G1 X-36.416 Y-18.448 E.1797
G1 X-37.035 Y-18.448 E.02648
G1 X-33.446 Y-22.037 E.21717
G1 X-33.446 Y-22.656 E.02649
G1 X-37.654 Y-18.448 E.25464
G1 X-38.273 Y-18.448 E.02648
G1 X-33.446 Y-23.275 E.29211
G1 X-33.446 Y-23.894 E.02649
G1 X-38.892 Y-18.448 E.32957
G1 X-39.511 Y-18.448 E.02648
G1 X-33.445 Y-24.513 E.36704
G1 X-33.445 Y-25.132 E.02649
G1 X-40.129 Y-18.448 E.40451
G1 X-40.748 Y-18.448 E.02648
G1 X-33.445 Y-25.751 E.44197
G1 X-33.445 Y-26.37 E.02649
G1 X-41.367 Y-18.448 E.47944
G1 X-41.986 Y-18.448 E.02648
G1 X-33.237 Y-27.197 E.52943
G1 E-.8 F1800
G1 Z.7 F21000
G1 X-23.252 Y-29.137 Z.7
G1 Z.3
G1 E.8 F1800
G1 F4800
G1 X-23.941 Y-28.448 E.04168
G1 X-24.56 Y-28.448 E.02648
G1 X-23.448 Y-29.56 E.06727
G1 X-23.448 Y-30.178 E.02648
G1 X-25.178 Y-28.448 E.10472
G1 X-25.797 Y-28.448 E.02648
G1 X-23.448 Y-30.797 E.14217
G1 X-23.448 Y-31.416 E.02648
G1 X-26.416 Y-28.448 E.17963
G1 X-27.035 Y-28.448 E.02648
G1 X-23.448 Y-32.035 E.21708
G1 X-23.448 Y-32.654 E.02648
G1 X-27.654 Y-28.448 E.25453
G1 X-28.273 Y-28.448 E.02648
G1 X-23.448 Y-33.273 E.29198
G1 X-23.448 Y-33.892 E.02648
G1 X-28.892 Y-28.448 E.32943
G1 X-29.511 Y-28.448 E.02648
G1 X-23.448 Y-34.511 E.36688
G1 X-23.448 Y-35.129 E.02648
G1 X-30.129 Y-28.448 E.40434
G1 X-30.748 Y-28.448 E.02648
G1 X-23.448 Y-35.748 E.44179
G1 X-23.448 Y-36.367 E.02648
G1 X-31.367 Y-28.448 E.47924
G1 X-31.986 Y-28.448 E.02648
G1 X-23.448 Y-36.986 E.51669
G1 X-23.448 Y-37.605 E.02648
G1 X-42.605 Y-18.448 E1.1593
G1 X-43.224 Y-18.448 E.02648
G1 X-23.448 Y-38.224 E1.19675
G1 X-23.448 Y-38.843 E.02648
G1 X-43.843 Y-18.448 E1.23421
G1 X-44.461 Y-18.448 E.02648
G1 X-23.448 Y-39.461 E1.27166
G1 X-23.448 Y-40.08 E.02648
G1 X-45.08 Y-18.448 E1.30911
G1 X-45.699 Y-18.448 E.02648
G1 X-23.448 Y-40.699 E1.34656
G1 X-23.448 Y-41.318 E.02648
G1 X-46.318 Y-18.448 E1.38401

G1 X-46.937 Y-18.448 E.02648
G1 X-23.448 Y-41.937 E1.42146
G1 X-23.448 Y-42.556 E.02648
G1 X-47.556 Y-18.448 E1.45891
G1 X-48.175 Y-18.448 E.02648
G1 X-23.448 Y-43.175 E1.49637
G1 X-23.448 Y-43.794 E.02648
G1 X-48.794 Y-18.448 E1.53382
G1 X-49.412 Y-18.448 E.02648
G1 X-23.448 Y-44.412 E1.57127
G1 X-23.448 Y-45.031 E.02648
G1 X-50.031 Y-18.448 E1.60872
G1 X-50.552 Y-18.448 E.02228
G1 X-50.552 Y-18.546 E.0042
G1 X-23.546 Y-45.552 E1.6343
G1 X-24.165 Y-45.552 E.02648
G1 X-50.552 Y-19.165 E1.59686
G1 X-50.553 Y-19.783 E.02647
G1 X-24.784 Y-45.552 E1.55943
G1 X-25.403 Y-45.552 E.02648
G1 X-50.553 Y-20.402 E1.52199
G1 X-50.553 Y-21.02 E.02647
G1 X-26.022 Y-45.552 E1.48456
G1 X-26.64 Y-45.552 E.02648
G1 X-50.553 Y-21.639 E1.44712
G1 X-50.554 Y-22.258 E.02647
G1 X-27.259 Y-45.552 E1.40968
G1 X-27.878 Y-45.552 E.02648
G1 X-50.554 Y-22.876 E1.37225
G1 X-50.554 Y-23.495 E.02647
G1 X-28.497 Y-45.552 E1.33481
G1 X-29.116 Y-45.552 E.02648
G1 X-50.554 Y-24.114 E1.29738
G1 X-50.555 Y-24.732 E.02647
G1 X-29.735 Y-45.552 E1.25994
G1 X-30.354 Y-45.552 E.02648
G1 X-50.555 Y-25.351 E1.2225
G1 X-50.555 Y-25.969 E.02647
G1 X-30.973 Y-45.552 E1.18507
G1 X-31.591 Y-45.552 E.02648
G1 X-50.555 Y-26.588 E1.14763
G1 X-50.565 Y-27.198 E.02609
G1 X-32.21 Y-45.552 E1.11073
G1 X-32.829 Y-45.552 E.02648
G1 X-50.709 Y-27.672 E1.08203
G1 X-50.794 Y-27.825 E.00749
G1 X-50.967 Y-28.033 E.01158
G1 X-33.448 Y-45.552 E1.06016
G1 X-34.067 Y-45.552 E.02648
G1 X-51.328 Y-28.291 E1.04458
G1 X-51.404 Y-28.332 E.0037
G1 X-51.721 Y-28.427 E.01417
G1 X-51.804 Y-28.434 E.00354
G1 X-34.686 Y-45.552 E1.03591
G1 X-35.305 Y-45.552 E.02648
G1 X-52.409 Y-28.448 E1.03507
G1 X-53.028 Y-28.448 E.02648
G1 X-35.923 Y-45.552 E1.03507
G1 X-36.542 Y-45.552 E.02648
G1 X-53.646 Y-28.448 E1.03507
G1 X-54.265 Y-28.448 E.02648
G1 X-37.161 Y-45.552 E1.03507
G1 X-37.78 Y-45.552 E.02648
G1 X-54.884 Y-28.448 E1.03507
G1 X-55.503 Y-28.448 E.02648
G1 X-38.399 Y-45.552 E1.03507
G1 X-39.018 Y-45.552 E.02648
G1 X-56.122 Y-28.448 E1.03507
G1 X-56.741 Y-28.448 E.02648
G1 X-39.637 Y-45.552 E1.03507
G1 X-40.256 Y-45.552 E.02648
G1 X-57.36 Y-28.448 E1.03507
G1 X-57.979 Y-28.448 E.02648
G1 X-40.874 Y-45.552 E1.03507
G1 X-41.493 Y-45.552 E.02648
G1 X-58.597 Y-28.448 E1.03507
G1 X-59.216 Y-28.448 E.02648
G1 X-42.112 Y-45.552 E1.03507
G1 X-42.731 Y-45.552 E.02648
G1 X-59.835 Y-28.448 E1.03507
G1 X-60.454 Y-28.448 E.02648
G1 X-43.35 Y-45.552 E1.03507
G1 X-43.969 Y-45.552 E.02648
G1 X-60.552 Y-28.969 E1.00355
G1 X-60.552 Y-29.588 E.02648
G1 X-44.588 Y-45.552 E.9661
G1 X-45.207 Y-45.552 E.02648
G1 X-60.552 Y-30.207 E.92865
G1 X-60.552 Y-30.825 E.02648
G1 X-45.825 Y-45.552 E.8912
G1 X-46.444 Y-45.552 E.02648
G1 X-60.552 Y-31.444 E.85375

G1 X-60.552 Y-32.063 E.02648
G1 X-47.063 Y-45.552 E.8163
G1 X-47.682 Y-45.552 E.02648
G1 X-60.552 Y-32.682 E.77884
G1 X-60.552 Y-33.301 E.02648
G1 X-48.301 Y-45.552 E.74139
G1 X-48.92 Y-45.552 E.02648
G1 X-60.552 Y-33.92 E.70394
G1 X-60.552 Y-34.539 E.02648
G1 X-49.539 Y-45.552 E.66649
G1 X-50.157 Y-45.552 E.02648
G1 X-60.552 Y-35.157 E.62904
G1 X-60.552 Y-35.776 E.02648
G1 X-50.776 Y-45.552 E.59159
G1 X-51.395 Y-45.552 E.02648
G1 X-60.552 Y-36.395 E.55413
G1 X-60.552 Y-37.014 E.02648
G1 X-52.014 Y-45.552 E.51668
G1 X-52.633 Y-45.552 E.02648
G1 X-60.552 Y-37.633 E.47923
G1 X-60.552 Y-38.252 E.02648
G1 X-53.252 Y-45.552 E.44178
G1 X-53.871 Y-45.552 E.02648
G1 X-60.552 Y-38.871 E.40433
G1 X-60.552 Y-39.49 E.02648
G1 X-54.49 Y-45.552 E.36688
G1 X-55.108 Y-45.552 E.02648
G1 X-60.552 Y-40.108 E.32943
G1 X-60.552 Y-40.727 E.02648
G1 X-55.727 Y-45.552 E.29197
G1 X-56.346 Y-45.552 E.02648
G1 X-60.552 Y-41.346 E.25452
G1 X-60.552 Y-41.965 E.02648
G1 X-56.965 Y-45.552 E.21707
G1 X-57.584 Y-45.552 E.02648
G1 X-60.552 Y-42.584 E.17962
G1 X-60.552 Y-43.203 E.02648
G1 X-58.203 Y-45.552 E.14217
G1 X-58.822 Y-45.552 E.02648
G1 X-60.552 Y-43.822 E.10472
G1 X-60.552 Y-44.441 E.02648
G1 X-59.441 Y-45.552 E.06726
G1 X-60.059 Y-45.552 E.02648
G1 X-60.748 Y-44.863 E.04168
G1 E-.56 F1800
;WIPE_START
G1 F4800
G1 X-60.059 Y-45.552 E-.23374
G1 X-60.033 Y-45.552 E-.00626
;WIPE_END
G1 Z.7 F21000
G1 X-50.893 Y4.851 Z.7
G1 Z.3
G1 E.8 F1800
;TYPE:Inner wall
;WIDTH:0.5
G1 F300
G1 X-50.905 Y4.729 E.00689
G1 X-51.065 Y4.359 E.02255
G1 X-51.314 Y4.097 E.02021
G1 X-51.615 Y3.938 E.01899
G1 X-51.968 Y3.879 E.02002
G1 X-60.879 Y3.879 E.4982
G1 X-60.879 Y-13.879 E.9928
G1 X-23.121 Y-13.879 E2.11096
G1 X-23.121 Y3.879 E.9928

G1 X-32.168 Y3.879 E.50581
G1 X-32.545 Y4.007 E.02223
G1 X-32.857 Y4.257 E.02237
G1 X-33.052 Y4.585 E.02135
G1 X-33.121 Y4.968 E.02173
G1 X-33.121 Y13.879 E.4982
G1 X-50.879 Y13.879 E.9928
G1 X-50.879 Y5 E.4964
G1 X-50.889 Y4.891 E.00611
G1 X-51.327 Y4.903 F21000
G1 F300
G1 X-51.342 Y4.78 E.00693
G1 X-51.473 Y4.541 E.01522
G1 X-51.707 Y4.369 E.01626
G1 X-51.968 Y4.314 E.0149
G1 X-61.314 Y4.314 E.52255
G1 X-61.314 Y-14.314 E1.04151

G1 X-22.686 Y-14.314 E2.15967

G1 X-22.686 Y4.314 E1.04151
G1 X-32.119 Y4.314 E.52742
G1 X-32.424 Y4.445 E.01855
G1 X-32.611 Y4.664 E.01608
G1 X-32.686 Y4.968 E.01749
G1 X-32.686 Y14.314 E.52255
G1 X-51.314 Y14.314 E1.04151
G1 X-51.314 Y5 E.52075
G1 X-51.322 Y4.943 E.00323
G1 X-51.75 Y4.968 F21000
;TYPE:Outer wall
G1 F300
G1 X-51.813 Y4.814 E.00927
G1 X-51.968 Y4.75 E.00937
G1 X-61.75 Y4.75 E.54691
G1 X-61.75 Y-14.75 E1.09021
G1 X-22.25 Y-14.75 E2.20838

G1 X-22.25 Y4.75 E1.09021
G1 X-32.032 Y4.75 E.54691
G1 X-32.187 Y4.814 E.00937
G1 X-32.25 Y4.968 E.00927
G1 X-32.25 Y14.75 E.54691
G1 X-51.75 Y14.75 E1.09021
G1 X-51.75 Y5.008 E.54467
G1 E-.56 F1800
;WIPE_START
G1 F600
G1 X-51.813 Y4.814 E-.04882
G1 X-51.968 Y4.75 E-.04021
G1 X-52.597 Y4.75 E-.15097
;WIPE_END
G1 Z.7 F21000
G1 X-52.597 Y4.346 Z.7
G1 X-51.347 Y4.347
G1 X-32.653 Y14.347
G1 X-32.654 Y12.863
G1 X-33.252 Y12.863
G1 Z.3
G1 E.8 F1800
;TYPE:Bottom surface
;WIDTH:0.501988
G1 F4800
G1 X-33.941 Y13.552 E.05474
G1 X-34.56 Y13.552 E.03476
G1 X-33.447 Y12.44 E.08833
G1 X-33.447 Y11.821 E.03477
G1 X-35.178 Y13.552 E.13751
G1 X-35.797 Y13.552 E.03476
G1 X-33.447 Y11.202 E.18669
G1 X-33.447 Y10.583 E.03477
G1 X-36.416 Y13.552 E.23586
G1 X-37.035 Y13.552 E.03476
G1 X-33.446 Y9.963 E.28504
G1 X-33.446 Y9.344 E.03477
G1 X-37.654 Y13.552 E.33421
G1 X-38.273 Y13.552 E.03476
G1 X-33.446 Y8.725 E.38339
G1 X-33.446 Y8.106 E.03477
G1 X-38.892 Y13.552 E.43256
G1 X-39.511 Y13.552 E.03476
G1 X-33.445 Y7.487 E.48174
G1 X-33.445 Y6.868 E.03477
G1 X-40.129 Y13.552 E.53091
G1 X-40.748 Y13.552 E.03476
G1 X-33.445 Y6.249 E.58009
G1 X-33.445 Y5.63 E.03477
G1 X-41.367 Y13.552 E.62927
G1 X-41.986 Y13.552 E.03476
G1 X-33.237 Y4.803 E.69488
G1 E-.8 F1800
G1 Z.7 F21000
G1 X-23.252 Y2.863 Z.7
G1 Z.3
G1 E.8 F1800
G1 F4800
G1 X-23.941 Y3.552 E.05471
G1 X-24.56 Y3.552 E.03476
G1 X-23.448 Y2.44 E.08829
G1 X-23.448 Y1.822 E.03476
G1 X-25.178 Y3.552 E.13745
G1 X-25.797 Y3.552 E.03476
G1 X-23.448 Y1.203 E.1866

G1 X-23.448 Y.584 E.03476
G1 X-26.416 Y3.552 E.23576
G1 X-27.035 Y3.552 E.03476
G1 X-23.448 Y-.035 E.28491
G1 X-23.448 Y-.654 E.03476
G1 X-27.654 Y3.552 E.33407
G1 X-28.273 Y3.552 E.03476
G1 X-23.448 Y-1.273 E.38322
G1 X-23.448 Y-1.892 E.03476
G1 X-28.892 Y3.552 E.43238
G1 X-29.511 Y3.552 E.03476
G1 X-23.448 Y-2.511 E.48153
G1 X-23.448 Y-3.129 E.03476
G1 X-30.129 Y3.552 E.53069
G1 X-30.748 Y3.552 E.03476
G1 X-23.448 Y-3.748 E.57985
G1 X-23.448 Y-4.367 E.03476
G1 X-31.367 Y3.552 E.629
G1 X-31.986 Y3.552 E.03476
G1 X-23.448 Y-4.986 E.67816
G1 X-23.448 Y-5.605 E.03476
G1 X-42.605 Y13.552 E1.52158
G1 X-43.224 Y13.552 E.03476
G1 X-23.448 Y-6.224 E1.57074
G1 X-23.448 Y-6.843 E.03476
G1 X-43.843 Y13.552 E1.61989
G1 X-44.461 Y13.552 E.03476
G1 X-23.448 Y-7.461 E1.66905

G1 X-23.448 Y-8.08 E.03476
G1 X-45.08 Y13.552 E1.7182
G1 X-45.699 Y13.552 E.03476
G1 X-23.448 Y-8.699 E1.76736
G1 X-23.448 Y-9.318 E.03476
G1 X-46.318 Y13.552 E1.81651
G1 X-46.937 Y13.552 E.03476
G1 X-23.448 Y-9.937 E1.86567
G1 X-23.448 Y-10.556 E.03476
G1 X-47.556 Y13.552 E1.91483
G1 X-48.175 Y13.552 E.03476
G1 X-23.448 Y-11.175 E1.96398
G1 X-23.448 Y-11.794 E.03476
G1 X-48.794 Y13.552 E2.01314
G1 X-49.412 Y13.552 E.03476
G1 X-23.448 Y-12.412 E2.06229
G1 X-23.448 Y-13.031 E.03476
G1 X-50.031 Y13.552 E2.11145
G1 X-50.552 Y13.552 E.02925
G1 X-50.552 Y13.454 E.00551
G1 X-23.546 Y-13.552 E2.14502
G1 X-24.165 Y-13.552 E.03476
G1 X-50.552 Y12.835 E2.09588
G1 X-50.553 Y12.217 E.03474
G1 X-24.784 Y-13.552 E2.04675
G1 X-25.403 Y-13.552 E.03476
G1 X-50.553 Y11.598 E1.99761
G1 X-50.553 Y10.98 E.03474
G1 X-26.022 Y-13.552 E1.94848
G1 X-26.64 Y-13.552 E.03476
G1 X-50.553 Y10.361 E1.89934
G1 X-50.554 Y9.742 E.03474
G1 X-27.259 Y-13.552 E1.85021
G1 X-27.878 Y-13.552 E.03476
G1 X-50.554 Y9.124 E1.80107
G1 X-50.554 Y8.505 E.03474
G1 X-28.497 Y-13.552 E1.75194
G1 X-29.116 Y-13.552 E.03476
G1 X-50.554 Y7.886 E1.70281
G1 X-50.555 Y7.268 E.03474
G1 X-29.735 Y-13.552 E1.65367
G1 X-30.354 Y-13.552 E.03476
G1 X-50.555 Y6.649 E1.60454
G1 X-50.555 Y6.031 E.03474
G1 X-30.973 Y-13.552 E1.5554
G1 X-31.591 Y-13.552 E.03476
G1 X-50.555 Y5.412 E1.50627
G1 X-50.565 Y4.802 E.03425
G1 X-32.21 Y-13.552 E1.45784
G1 X-32.829 Y-13.552 E.03476
G1 X-50.709 Y4.328 E1.42016
G1 X-50.794 Y4.175 E.00982
G1 X-50.967 Y3.967 E.01519
G1 X-33.448 Y-13.552 E1.39147
G1 X-34.067 Y-13.552 E.03476
G1 X-51.328 Y3.709 E1.37101
G1 X-51.404 Y3.668 E.00485
