; HEADER_BLOCK_START
; generated by OrcaSlicer 2.1.1 on 2024-07-03 at 12:28:52
; total layer number: 468
; filament_density: 1.24
; filament_diameter: 1.75
; max_z_height: 93.60
; HEADER_BLOCK_END

; external perimeters extrusion width = 0.40mm
; perimeters extrusion width = 0.45mm
; infill extrusion width = 0.45mm
; solid infill extrusion width = 0.40mm
; top infill extrusion width = 0.40mm
; support material extrusion width = 0.40mm
; first layer extrusion width = 0.50mm

; EXECUTABLE_BLOCK_START
M106 S0
M106 P2 S0
;TYPE:Custom
M140 S0      ;Start heating bed
M104 S215             ;Start preheating hotend
M190 S0      ;Wait for bed to reach temp
M104 S215             ;Start heating hotend
;G92 E0                                        ;Reset extruder
G28                                           ;Home all axes

;G0 Z12                                        ;move to close of bottom
G32                                           ;ABL probing
M420 S1                                       ;Load and use bed leveling mesh
M109 S215    ;Wait for hotend to reach printing temp
G92 E0                                        ;Reset extruder
G0 Z12 F3000                                  ;Move Z up to safe height
G90
G21
M83 ; use relative distances for extrusion
; filament start gcode
M106 S0
M106 P2 S0
;LAYER_CHANGE
;Z:0.2
;HEIGHT:0.2
;BEFORE_LAYER_CHANGE
;0.2
G92 E0

G1 E-.8 F1800
;AFTER_LAYER_CHANGE
;0.2
;_SET_FAN_SPEED_CHANGING_LAYER
M204 S500
G1 Z.4 F21000
G1 X-3.585 Y-31.212
G1 Z.4
G1 Z.2
G1 E.8 F1800
;TYPE:Support
;WIDTH:0.5
G1 F300
G1 X-3.135 Y-31.127 E.01709
G1 X-2.348 Y-30.782 E.032
G1 X-2.06 Y-30.553 E.0137
G1 X-1.814 Y-30.5 E.00938
G1 X-1.814 Y26.814 E2.13471
G1 X-2.431 Y27.499 E.03435
G1 X-3.392 Y28.339 E.04753
G1 X-4.217 Y28.889 E.03692
G1 X-5.031 Y29.363 E.03508
G1 X-6.203 Y29.842 E.04718
G1 X-7.257 Y30.161 E.041
G1 X-8.185 Y30.323 E.03508
G1 X-8.994 Y30.397 E.03028
G1 X-9.385 Y30.417 E.01459
G1 X-9.96 Y30.397 E.02143
G1 X-10.598 Y30.519 E.02418
G1 X-11.767 Y30.593 E.04362
G1 X-12.227 Y30.583 E.01714
G1 X-12.996 Y30.52 E.02873
G1 X-13.443 Y30.453 E.01684
G1 X-14.046 Y30.332 E.0229
G1 X-14.757 Y30.144 E.02741
G1 X-15.81 Y29.751 E.04185
G1 X-16.54 Y29.384 E.03043
G1 X-17.555 Y28.74 E.0448
G1 X-18.496 Y27.975 E.04514
G1 X-19.331 Y27.13 E.04426
G1 X-20.195 Y26.127 E.04932
G1 X-20.45 Y25.764 E.01652
G1 X-20.712 Y25.107 E.02634
G1 X-20.857 Y24.85 E.01098
G1 X-21.372 Y23.649 E.0487
G1 X-21.518 Y23.177 E.01837
G1 X-21.733 Y22.268 E.03481
G1 X-21.904 Y20.937 E.04997
G1 X-21.882 Y19.867 E.03986
G1 X-21.781 Y18.835 E.03865
G1 X-21.503 Y17.628 E.04614
G1 X-21.063 Y16.399 E.0486
G1 X-20.527 Y15.372 E.04317
G1 X-19.97 Y14.523 E.03781
G1 X-19.304 Y13.687 E.03979
G1 X-18.375 Y12.809 E.04764
G1 X-17.428 Y12.093 E.04421
G1 X-16.372 Y11.472 E.04565
G1 X-15.45 Y11.073 E.03738
G1 X-15.007 Y10.931 E.01735
G1 X-14.191 Y10.5 E.03435
G1 X-13.027 Y10.053 E.04646
G1 X-12.24 Y9.854 E.03022
G1 X-11.344 Y9.701 E.03386
G1 X-10.284 Y9.607 E.03962
G1 X-9.295 Y9.588 E.03688
G1 X-8.555 Y9.629 E.02758
G1 X-7.799 Y9.735 E.02843
G1 X-7.014 Y9.911 E.02997
G1 X-6.461 Y10.071 E.02146
G1 X-6.406 Y9.677 E.01485
G1 X-6.069 Y9.066 E.02596
G1 X-6.137 Y8.865 E.00793
G1 X-6.239 Y8.225 E.02415
G1 X-6.163 Y7.457 E.02873
G1 X-6.09 Y7.274 E.00735
G1 X-6.552 Y6.8 E.02463
G1 X-6.578 Y5.651 E.04284
G1 X-6.474 Y4.9 E.02822
G1 X-6.137 Y4.287 E.02604
G1 X-6.285 Y3.784 E.01954
G1 X-6.341 Y3.329 E.01706
G1 X-6.298 Y2.753 E.02154
G1 X-6.112 Y2.084 E.02586
G1 X-5.702 Y1.397 E.0298
G1 X-5.674 Y1.086 E.0116
G1 X-5.849 Y.972 E.00778
G1 X-6.433 Y.272 E.03397
G1 X-6.759 Y-.629 E.03567
G1 X-6.759 Y-1.586 E.03567
G1 X-6.433 Y-2.487 E.03567
G1 X-6.222 Y-2.74 E.01228
G1 X-6.602 Y-3.195 E.0221
G1 X-6.928 Y-4.096 E.03567
G1 X-6.928 Y-5.038 E.03511
G1 X-6.589 Y-5.969 E.0369
G1 X-6.258 Y-6.366 E.01926
G1 X-6.27 Y-6.775 E.01521
G1 X-6.208 Y-7.221 E.01678
G1 X-6.64 Y-7.739 E.02511
G1 X-6.966 Y-8.639 E.03567
G1 X-6.966 Y-9.597 E.03567
G1 X-6.64 Y-10.497 E.03567
G1 X-6.153 Y-11.08 E.02829
G1 X-6.769 Y-11.731 E.03335
G1 X-6.785 Y-12.441 E.02647
G1 X-6.993 Y-13.308 E.03318
G1 X-6.76 Y-14.103 E.03086
G1 X-6.413 Y-14.788 E.02863
G1 X-6.127 Y-15.066 E.01487
G1 X-6.231 Y-15.319 E.01018
G1 X-6.389 Y-16.058 E.02814
G1 X-6.306 Y-16.773 E.02683
G1 X-6.093 Y-17.429 E.02569
G1 X-5.646 Y-18.12 E.03064
G1 X-5.951 Y-18.319 E.01358
G1 X-6.535 Y-19.02 E.03397
G1 X-6.861 Y-19.92 E.03567
G1 X-6.861 Y-20.878 E.03567
G1 X-6.535 Y-21.778 E.03567
G1 X-6.244 Y-22.127 E.01693
G1 X-6.617 Y-22.574 E.02168
G1 X-6.943 Y-23.475 E.03567
G1 X-6.943 Y-24.417 E.03511
G1 X-6.586 Y-25.395 E.03877
G1 X-7.009 Y-25.895 E.0244
G1 X-7.247 Y-26.328 E.01841
G1 X-7.412 Y-26.733 E.0163
G1 X-7.522 Y-27.164 E.01654
G1 X-7.578 Y-27.602 E.01645
G1 X-7.578 Y-28.042 E.01639
G1 X-7.518 Y-28.483 E.01657
G1 X-7.409 Y-28.905 E.01626
G1 X-7.237 Y-29.319 E.01668
G1 X-7.027 Y-29.699 E.01617
G1 X-6.753 Y-30.055 E.01675
G1 X-6.457 Y-30.37 E.01611
G1 X-6.1 Y-30.644 E.01678
G1 X-5.735 Y-30.876 E.0161
G1 X-5.319 Y-31.049 E.01677
G1 X-4.907 Y-31.183 E.01613
G1 X-4.462 Y-31.242 E.01672
G1 X-4.028 Y-31.269 E.0162
G1 X-3.653 Y-31.221 E.01408
G1 X-2.353 Y27.105 F21000
G1 F300
G1 X-2.353 Y-30.261 E2.13667
G1 X-2.562 Y-30.426 E.00992
G1 X-2.861 Y-30.558 E.01216
G1 X-2.861 Y27.328 E2.15603
G1 X-3.369 Y27.772 E.02512
G1 X-3.369 Y-30.753 E2.17982
G1 X-3.65 Y-30.806 E.01067
G1 X-3.877 Y-30.835 E.0085
G1 X-3.877 Y28.167 E2.19762
G1 X-4.384 Y28.506 E.02273
G1 X-4.384 Y-30.835 E2.21021
G1 X-4.816 Y-30.78 E.01619
G1 X-4.892 Y-30.755 E.003
G1 X-4.892 Y28.806 E2.21841
G1 X-5.213 Y28.993 E.01382
G1 X-5.4 Y29.069 E.00753
G1 X-5.4 Y-17.742 E1.74355
G1 X-5.718 Y-17.251 E.0218
G1 X-5.908 Y-16.633 E.0241
G1 X-5.908 Y-15.776 E.03192
G1 X-5.836 Y-15.442 E.01272
G1 X-5.64 Y-14.965 E.01919
G1 X-5.908 Y-14.705 E.0139
G1 X-5.908 Y-11.42 E.12238
G1 X-6.361 Y-11.899 E.02455
G1 X-6.375 Y-12.495 E.02221
G1 X-6.416 Y-12.666 E.00655
G1 X-6.416 Y-14.328 E.06189
G1 X-5.4 Y-18.205 F21000
G1 F300
G1 X-5.4 Y-30.569 E.46053
G1 X-5.544 Y-30.51 E.00581
G1 X-5.908 Y-30.273 E.01617
G1 X-5.908 Y-18.91 E.42323
G1 X-6.173 Y-19.228 E.01541
G1 X-6.416 Y-19.898 E.02656
G1 X-6.416 Y-21.504 E.0598
G1 E-.56 F1800
;WIPE_START
G1 F600
G1 X-6.416 Y-20.504 E-.24
;WIPE_END
G1 Z.6 F21000
G1 X-5.908 Y29.499 Z.6
G1 Z.2
G1 E.8 F1800
G1 F300
G1 X-5.908 Y9.627 E.74016
G1 X-6.009 Y9.809 E.00776
G1 X-6.119 Y10.598 E.02969
G1 X-6.416 Y10.512 E.0115
G1 X-6.416 Y29.476 E.70632
G1 X-6.924 Y29.63 E.01977
G1 X-6.924 Y10.366 E.71753
G1 X-7.432 Y10.239 E.01949
G1 X-7.432 Y29.774 E.7276
G1 X-7.939 Y29.863 E.0192
G1 X-7.939 Y10.131 E.73493
G1 X-8.447 Y10.059 E.0191
G1 X-8.447 Y29.934 E.74025
G1 X-8.955 Y29.98 E.01899
G1 X-8.955 Y10.019 E.74349
G1 X-9.463 Y10.003 E.01893
G1 X-9.463 Y30.003 E.74492
G1 X-9.971 Y29.985 E.01893
G1 X-9.971 Y10.013 E.7439
G1 X-10.479 Y10.038 E.01894
G1 X-10.479 Y30.077 E.74641
G1 X-10.65 Y30.11 E.00649
G1 X-10.987 Y30.131 E.01257
G1 X-10.987 Y10.082 E.74675
G1 X-11.494 Y10.144 E.01905
G1 X-11.494 Y30.164 E.74565
G1 X-12.002 Y30.177 E.01892
G1 X-12.002 Y10.231 E.7429
G1 X-12.51 Y10.347 E.0194
G1 X-12.51 Y30.147 E.73749
G1 X-13.018 Y30.101 E.019
G1 X-13.018 Y10.491 E.73041
G1 X-13.526 Y10.686 E.02026
G1 X-13.526 Y30.017 E.72002
G1 X-14.034 Y29.91 E.01933
G1 X-14.034 Y10.882 E.7087
G1 X-14.542 Y11.15 E.02139
G1 X-14.542 Y29.775 E.69371
G1 X-15.05 Y29.596 E.02007
G1 X-15.05 Y11.376 E.67859
G1 X-15.305 Y11.459 E.01001
G1 X-15.557 Y11.568 E.01023
G1 X-15.557 Y29.406 E.6644
G1 X-16.065 Y29.169 E.02088
G1 X-16.065 Y11.787 E.64739
G1 X-16.185 Y11.839 E.00485
G1 X-16.573 Y12.067 E.01677
G1 X-16.573 Y28.875 E.62604
G1 X-17.081 Y28.553 E.0224
G1 X-17.081 Y12.366 E.60293
G1 X-17.199 Y12.435 E.0051
G1 X-17.589 Y12.73 E.01821
G1 X-17.589 Y28.182 E.57555
G1 X-18.097 Y27.77 E.02438
G1 X-18.097 Y13.114 E.54587
G1 X-18.605 Y13.585 E.0258
G1 X-18.605 Y27.28 E.51009
G1 X-19.112 Y26.754 E.02724
G1 X-19.112 Y14.107 E.47105
G1 X-19.62 Y14.744 E.03033
G1 X-19.62 Y26.164 E.42536
G1 X-19.87 Y25.874 E.01426
G1 X-20.086 Y25.567 E.01397
G1 X-20.128 Y25.461 E.00423
G1 X-20.128 Y15.514 E.3705
G1 X-20.636 Y16.46 E.03999
G1 X-20.636 Y24.322 E.29281
G1 X-20.986 Y23.507 E.03303
G1 X-21.144 Y22.971 E.0208
G1 X-21.144 Y17.234 E.21367
G1 E-.56 F1800
;WIPE_START
G1 F600
G1 X-21.144 Y18.234 E-.24
;WIPE_END
G1 Z.6 F21000
G1 X-5.908 Y7.166 Z.6
G1 Z.2
G1 E.8 F1800
G1 F300
G1 X-5.908 Y2.144 E.18705
G1 X-5.908 Y.581 F21000
G1 F300
G1 X-5.908 Y-10.732 E.42136
G1 X-6.278 Y-10.289 E.02149
G1 X-6.416 Y-9.907 E.01513
G1 X-6.416 Y-7.791 E.07881
G1 X-6.416 Y-3.293 F21000
G1 F300
G1 X-6.416 Y-5.848 E.09516
G1 E-.56 F1800
;WIPE_START
G1 F600
G1 X-6.416 Y-4.848 E-.24
;WIPE_END
G1 Z.6 F21000
G1 X-6.416 Y-22.655 Z.6
G1 Z.2
G1 E.8 F1800
G1 F300
G1 X-6.416 Y-24.686 E.07566
G1 X-6.114 Y-25.474 E.03144
G1 X-6.416 Y-25.831 E.0174
G1 X-6.416 Y-29.813 E.14834
G1 X-6.682 Y-29.473 E.01611
G1 X-6.924 Y-29.001 E.01975
G1 X-6.924 Y-26.167 E.10554
G1 E-.56 F1800
;WIPE_START
G1 F600
G1 X-6.924 Y-27.167 E-.24
;WIPE_END
G1 Z.6 F21000
G1 X-3.042 Y-48.155 Z.6
G1 Z.2
G1 E.8 F1800
G1 F300
G1 X-2.653 Y-48.138 E.01453
G1 X-1.722 Y-47.925 E.03555
G1 X-.845 Y-47.55 E.03555
G1 X-.048 Y-47.024 E.03555
G1 X.642 Y-46.365 E.03555
G1 X1.203 Y-45.593 E.03555
G1 X1.617 Y-44.733 E.03555
G1 X1.871 Y-43.813 E.03555
G1 X1.956 Y-42.862 E.03555
G1 X1.871 Y-41.911 E.03555
G1 X1.617 Y-40.991 E.03555
G1 X1.203 Y-40.131 E.03555
G1 X.642 Y-39.359 E.03555
G1 X-.048 Y-38.7 E.03555
G1 X-.845 Y-38.174 E.03555
G1 X-1.722 Y-37.799 E.03555
G1 X-2.653 Y-37.586 E.03555
G1 X-3.606 Y-37.544 E.03555
G1 X-4.552 Y-37.672 E.03555
G1 X-5.46 Y-37.967 E.03555
G1 X-6.3 Y-38.419 E.03555
G1 X-7.047 Y-39.014 E.03555
G1 X-7.675 Y-39.733 E.03555
G1 X-8.164 Y-40.552 E.03555
G1 X-8.5 Y-41.446 E.03555
G1 X-8.67 Y-42.385 E.03555
G1 X-8.67 Y-43.339 E.03555
G1 X-8.5 Y-44.278 E.03555
G1 X-8.164 Y-45.172 E.03555
G1 X-7.675 Y-45.991 E.03555
G1 X-7.047 Y-46.71 E.03555
G1 X-6.3 Y-47.305 E.03555
G1 X-5.46 Y-47.758 E.03555
G1 X-4.552 Y-48.052 E.03555
G1 X-3.606 Y-48.181 E.03555
G1 X-3.111 Y-48.158 E.01847
G1 X1.202 Y-40.604 F21000
G1 F300
G1 X1.202 Y-44.646 E.15053
G1 X.848 Y-45.381 E.03038
G1 X.694 Y-45.593 E.00975
G1 X.694 Y-40.131 E.20341
G1 X.331 Y-39.631 E.02304
G1 X.186 Y-39.493 E.00744
G1 X.186 Y-46.231 E.25096
G1 X-.321 Y-46.712 E.02605
G1 X-.321 Y-39.012 E.28679
G1 X-.829 Y-38.677 E.02267
G1 X-.829 Y-47.047 E.31176
G1 X-1.04 Y-47.187 E.00942
G1 X-1.337 Y-47.313 E.01202
G1 X-1.337 Y-38.411 E.33159
G1 X-1.845 Y-38.194 E.02057
G1 X-1.845 Y-47.53 E.34776
G1 X-2.353 Y-47.647 E.01941
G1 X-2.353 Y-38.077 E.35647
G1 X-2.708 Y-37.996 E.01358
G1 X-2.861 Y-37.989 E.00569
G1 X-2.861 Y-47.735 E.36302
G1 X-3.369 Y-47.758 E.01894
G1 X-3.369 Y-37.966 E.36472
G1 X-3.588 Y-37.956 E.00817
G1 X-3.877 Y-37.995 E.01085
G1 X-3.876 Y-47.729 E.36254
G1 X-4.384 Y-47.66 E.01909
G1 X-4.384 Y-38.064 E.35741
G1 X-4.892 Y-38.215 E.01973
G1 X-4.892 Y-47.509 E.34619
G1 X-5.298 Y-47.378 E.01587
G1 X-5.4 Y-47.323 E.00434
G1 X-5.4 Y-38.402 E.33227
G1 X-5.908 Y-38.675 E.02148
G1 X-5.908 Y-47.049 E.31191
G1 X-6.073 Y-46.961 E.00697
G1 X-6.416 Y-46.687 E.01634
G1 X-6.416 Y-39.037 E.28493
G1 X-6.761 Y-39.313 E.01645
G1 X-6.924 Y-39.499 E.0092
G1 X-6.924 Y-46.226 E.25056
G1 X-7.34 Y-45.749 E.02359
G1 X-7.432 Y-45.596 E.00662
G1 X-7.432 Y-40.128 E.20366
G1 X-7.792 Y-40.731 E.02617
G1 X-7.939 Y-41.124 E.01563
G1 X-7.939 Y-45.147 E.14984
G1 E-.56 F1800
;WIPE_START
G1 F600
G1 X-7.939 Y-44.147 E-.24
;WIPE_END
G1 Z.6 F21000
G1 X-3.084 Y31.334 Z.6
G1 Z.2
G1 E.8 F1800
G1 F300
G1 X-2.694 Y31.352 E.01453
G1 X-1.763 Y31.564 E.03555
G1 X-.886 Y31.939 E.03555
G1 X-.089 Y32.465 E.03555
G1 X.601 Y33.125 E.03555
G1 X1.162 Y33.897 E.03555
G1 X1.576 Y34.757 E.03555
G1 X1.83 Y35.677 E.03555
G1 X1.915 Y36.628 E.03555
G1 X1.83 Y37.578 E.03555
G1 X1.576 Y38.498 E.03555
G1 X1.162 Y39.358 E.03555
G1 X.601 Y40.13 E.03555
G1 X-.089 Y40.79 E.03555
G1 X-.886 Y41.316 E.03555
G1 X-1.763 Y41.691 E.03555
G1 X-2.694 Y41.903 E.03555
G1 X-3.647 Y41.946 E.03555
G1 X-4.593 Y41.818 E.03555
G1 X-5.501 Y41.523 E.03555
G1 X-6.342 Y41.071 E.03555
G1 X-7.088 Y40.476 E.03555
G1 X-7.716 Y39.757 E.03555
G1 X-8.205 Y38.937 E.03555
G1 X-8.541 Y38.044 E.03555
G1 X-8.711 Y37.105 E.03555
G1 X-8.711 Y36.15 E.03555
G1 X-8.541 Y35.211 E.03555
G1 X-8.205 Y34.318 E.03555
G1 X-7.716 Y33.498 E.03555
G1 X-7.088 Y32.779 E.03555
G1 X-6.342 Y32.184 E.03555
G1 X-5.501 Y31.732 E.03555
G1 X-4.593 Y31.437 E.03555
G1 X-3.647 Y31.309 E.03555
G1 X-3.152 Y31.331 E.01846
G1 X1.202 Y38.8 F21000
G1 F300
G1 X1.202 Y34.949 E.14342
G1 X.807 Y34.109 E.03459
G1 X.694 Y33.954 E.00715
G1 X.694 Y39.302 E.19919
G1 X.29 Y39.859 E.02564
G1 X.186 Y39.957 E.00532
G1 X.186 Y33.298 E.24804
G1 X-.321 Y32.812 E.02617
G1 X-.321 Y40.443 E.28421
G1 X-.829 Y40.786 E.02282
G1 X-.829 Y32.47 E.30974
G1 X-1.082 Y32.303 E.01126
G1 X-1.337 Y32.194 E.01036
G1 X-1.337 Y41.061 E.33028
G1 X-1.845 Y41.278 E.02057
G1 X-1.845 Y31.977 E.34645
G1 X-2.353 Y31.852 E.01948
G1 X-2.353 Y41.403 E.35577
G1 X-2.749 Y41.494 E.01515
G1 X-2.861 Y41.499 E.00415
G1 X-2.861 Y31.756 E.36288
G1 X-3.369 Y31.733 E.01894
G1 X-3.369 Y41.522 E.36458
G1 X-3.629 Y41.533 E.0097
G1 X-3.877 Y41.5 E.00931
G1 X-3.877 Y31.755 E.36295
G1 X-4.384 Y31.824 E.01909
G1 X-4.384 Y41.431 E.35783
G1 X-4.501 Y41.415 E.0044
G1 X-4.892 Y41.288 E.01531
G1 X-4.892 Y31.967 E.34719
G1 X-5.339 Y32.112 E.01748
G1 X-5.4 Y32.145 E.0026
G1 X-5.4 Y41.11 E.33392
G1 X-5.908 Y40.837 E.02148
G1 X-5.908 Y32.418 E.31356
G1 X-6.114 Y32.529 E.00871
G1 X-6.416 Y32.77 E.01438
G1 X-6.416 Y40.485 E.28737
G1 X-6.802 Y40.177 E.01841
G1 X-6.924 Y40.038 E.00687
G1 X-6.924 Y33.217 E.25406
G1 X-7.382 Y33.741 E.02592
G1 X-7.432 Y33.825 E.00363
G1 X-7.432 Y39.43 E.20879
G1 X-7.833 Y38.758 E.02916
G1 X-7.939 Y38.475 E.01127
G1 X-7.939 Y34.274 E.15648
G1 E-.56 F1800
;WIPE_START
G1 F600
G1 X-7.939 Y35.274 E-.24
;WIPE_END
G1 Z.6 F21000
G1 X-8.216 Y30.783 Z.6
G1 Z.2
G1 E.8 F1800
;TYPE:Brim
G1 F300
G1 X-8.12 Y30.775 E.00359
G1 X-7.144 Y30.604 E.0369
G1 X-6.035 Y30.267 E.04317
G1 X-4.822 Y29.769 E.04885
G1 X-3.966 Y29.271 E.03689
G1 X-3.12 Y28.706 E.03788
G1 X-2.115 Y27.829 E.04967
G1 X-1.542 Y27.195 E.03182
G1 X-1.533 Y27.925 E.02719
G1 X-1.518 Y27.979 E.00206
G1 X-1.409 Y28.115 E.00652
G1 X-1.324 Y28.162 E.00361
G1 X-1.214 Y28.191 E.00426
G1 X.586 Y28.191 E.06704
G1 X.703 Y28.167 E.00442
G1 X.84 Y28.058 E.00652
G1 X.886 Y27.973 E.00361
G1 X.915 Y27.862 E.00426
G1 X.906 Y-34.39 E2.31864
G1 X.891 Y-34.443 E.00206
G1 X.782 Y-34.579 E.00652
G1 X.697 Y-34.626 E.00361
G1 X.586 Y-34.655 E.00426
G1 X-1.214 Y-34.655 E.06704
G1 X-1.33 Y-34.631 E.00442
G1 X-1.467 Y-34.522 E.00652
G1 X-1.514 Y-34.437 E.00361
G1 X-1.542 Y-34.326 E.00426
G1 X-1.542 Y-30.87 E.12874
G1 X-1.637 Y-30.929 E.00416
G1 X-1.86 Y-30.978 E.00849
G1 X-2.151 Y-31.194 E.01352
G1 X-2.963 Y-31.551 E.03303
G1 X-3.499 Y-31.661 E.02039
G1 X-3.561 Y-31.652 E.00235
G1 X-3.595 Y-31.674 E.00149
G1 X-3.981 Y-31.724 E.01448
G1 X-4.494 Y-31.698 E.01916
G1 X-4.978 Y-31.634 E.01816
G1 X-5.472 Y-31.479 E.01931
G1 X-5.937 Y-31.285 E.01876
G1 X-6.357 Y-31.022 E.01847
G1 X-6.769 Y-30.703 E.01941
G1 X-7.105 Y-30.347 E.01821
G1 X-7.414 Y-29.942 E.01899
G1 X-7.645 Y-29.523 E.01783
G1 X-7.84 Y-29.058 E.01877
G1 X-7.97 Y-28.55 E.01952
G1 X-8.034 Y-28.065 E.01823
G1 X-8.034 Y-27.58 E.01805
G1 X-7.972 Y-27.084 E.01861
G1 X-7.848 Y-26.597 E.01873
G1 X-7.661 Y-26.137 E.01849
G1 X-7.405 Y-25.665 E.02001
G1 X-7.105 Y-25.302 E.01753
G1 X-7.4 Y-24.437 E.03403
G1 X-7.387 Y-23.378 E.03944
G1 X-7.04 Y-22.401 E.03861
G1 X-6.835 Y-22.126 E.01278
G1 X-6.958 Y-21.953 E.00794
G1 X-7.298 Y-21.015 E.03715
G1 X-7.312 Y-20.937 E.00294
G1 X-7.312 Y-19.861 E.04008
G1 X-7.297 Y-19.782 E.003
G1 X-6.938 Y-18.809 E.03861
G1 X-6.27 Y-17.994 E.03925
G1 X-6.523 Y-17.584 E.01796
G1 X-6.759 Y-16.836 E.02921
G1 X-6.84 Y-15.98 E.03201
G1 X-6.665 Y-15.177 E.03063
G1 X-6.812 Y-15.012 E.00826
G1 X-7.173 Y-14.3 E.02973
G1 X-7.44 Y-13.408 E.03467
G1 X-7.451 Y-13.289 E.00445
G1 X-7.241 Y-12.382 E.03467
G1 X-7.224 Y-11.678 E.02623
G1 X-7.207 Y-11.596 E.00311
G1 X-7.13 Y-11.448 E.00624
G1 X-6.763 Y-11.06 E.0199
