; HEADER_BLOCK_START
; generated by OrcaSlicer 2.1.1 on 2024-07-03 at 13:34:13
; total layer number: 107
; filament_density: 1.24
; filament_diameter: 1.75
; max_z_height: 21.40
; HEADER_BLOCK_END

; external perimeters extrusion width = 0.40mm
; perimeters extrusion width = 0.45mm
; infill extrusion width = 0.45mm
; solid infill extrusion width = 0.40mm
; top infill extrusion width = 0.40mm
; support material extrusion width = 0.40mm
; first layer extrusion width = 0.50mm

; EXECUTABLE_BLOCK_START
M106 S0
M106 P2 S0
;TYPE:Custom
M140 S0      ;Start heating bed
M104 S215             ;Start preheating hotend
M190 S0      ;Wait for bed to reach temp
M104 S215             ;Start heating hotend
;G92 E0                                        ;Reset extruder
G28                                           ;Home all axes

;G0 Z12                                        ;move to close of bottom
G32                                           ;ABL probing
M420 S1                                       ;Load and use bed leveling mesh
M109 S215    ;Wait for hotend to reach printing temp
G92 E0                                        ;Reset extruder
G0 Z12 F3000                                  ;Move Z up to safe height
G90
G21
M83 ; use relative distances for extrusion
; filament start gcode
M106 S0
M106 P2 S0
;LAYER_CHANGE
;Z:0.2
;HEIGHT:0.2
;BEFORE_LAYER_CHANGE
;0.2
G92 E0

G1 E-.8 F1800
;AFTER_LAYER_CHANGE
;0.2
;_SET_FAN_SPEED_CHANGING_LAYER
; Calib_Retraction_tower: Z_HEIGHT: 0.2, length:0
M204 S500
G1 Z.4 F21000
G1 X19.209 Y-5.092
G1 Z.4
G1 Z.2
G1 E.8 F1800
;TYPE:Inner wall
;WIDTH:0.499999
G1 F300
G1 X19.293 Y-4.29 E.03005
G1 X19.293 Y4.454 E.32565
G1 X19.209 Y5.092 E.02398
G1 X18.98 Y5.643 E.02224
G1 X18.617 Y6.117 E.02224
G1 X18.143 Y6.48 E.02223
G1 X17.592 Y6.709 E.02224
G1 X16.954 Y6.793 E.02398
G1 X-16.954 Y6.793 E1.26292
G1 X-17.592 Y6.709 E.02398
G1 X-18.143 Y6.48 E.02224
G1 X-18.617 Y6.117 E.02223
G1 X-18.98 Y5.643 E.02224
G1 X-19.209 Y5.092 E.02224
G1 X-19.293 Y4.454 E.02398
G1 X-19.293 Y-4.454 E.33176
G1 X-19.209 Y-5.092 E.02398
G1 X-18.98 Y-5.643 E.02224
G1 X-18.617 Y-6.117 E.02223
G1 X-18.143 Y-6.48 E.02223
G1 X-17.592 Y-6.709 E.02224
G1 X-16.954 Y-6.793 E.02398
G1 X16.954 Y-6.793 E1.26292
G1 X17.592 Y-6.709 E.02398
G1 X18.143 Y-6.48 E.02224
G1 X18.617 Y-6.117 E.02224
G1 X18.98 Y-5.643 E.02223
G1 X19.194 Y-5.129 E.02075
G1 X19.654 Y-5.211 F21000
;TYPE:Outer wall
G1 F300
G1 X19.75 Y-4.29 E.03451
G1 X19.75 Y4.484 E.32677
G1 X19.654 Y5.211 E.02733
G1 X19.38 Y5.874 E.02672
G1 X18.943 Y6.443 E.02672
G1 X18.374 Y6.88 E.02672
G1 X17.711 Y7.154 E.02672
G1 X16.984 Y7.25 E.02733
G1 X-16.984 Y7.25 E1.26515
G1 X-17.711 Y7.154 E.02733
G1 X-18.374 Y6.88 E.02672
G1 X-18.943 Y6.443 E.02672
G1 X-19.38 Y5.874 E.02672
G1 X-19.654 Y5.211 E.02672
G1 X-19.75 Y4.484 E.02733
G1 X-19.75 Y-4.484 E.33399
G1 X-19.654 Y-5.211 E.02733
G1 X-19.38 Y-5.874 E.02672
G1 X-18.943 Y-6.443 E.02672
G1 X-18.374 Y-6.88 E.02672
G1 X-17.711 Y-7.154 E.02672
G1 X-16.984 Y-7.25 E.02733
G1 X16.984 Y-7.25 E1.26515
G1 X17.711 Y-7.154 E.02733
G1 X18.374 Y-6.88 E.02672
G1 X18.943 Y-6.443 E.02672
G1 X19.38 Y-5.874 E.02672
G1 X19.639 Y-5.248 E.02523
;WIPE_START
G1 F600
G1 X19.75 Y-4.29
G1 X19.75 Y-4.255
;WIPE_END
G1 X16.945 Y-6.656 F21000
;TYPE:Bottom surface
;WIDTH:0.500139
G1 F1800
G1 X18.917 Y-4.684 E.10387
G1 X18.95 Y-4.431 E.00951
G1 X18.95 Y-4.004 E.0159
G1 X16.504 Y-6.45 E.12887
G1 X15.858 Y-6.45 E.02409
G1 X18.95 Y-3.358 E.16294
G1 X18.95 Y-2.711 E.02409
G1 X15.211 Y-6.45 E.19701
G1 X14.565 Y-6.45 E.02409
G1 X18.95 Y-2.065 E.23108
G1 X18.95 Y-1.418 E.02409
G1 X13.918 Y-6.45 E.26515
G1 X13.271 Y-6.45 E.02409
G1 X18.95 Y-.771 E.29922
G1 X18.95 Y-.125 E.02409
G1 X12.625 Y-6.45 E.33329
G1 X11.978 Y-6.45 E.02409
G1 X18.95 Y.522 E.36736
G1 X18.95 Y1.168 E.02409
G1 X11.332 Y-6.45 E.40142
G1 X10.685 Y-6.45 E.02409
G1 X18.95 Y1.815 E.43549
G1 X18.95 Y2.462 E.02409
G1 X10.038 Y-6.45 E.46956
G1 X9.392 Y-6.45 E.02409
G1 X18.95 Y3.108 E.50363
G1 X18.95 Y3.755 E.02409
G1 X8.745 Y-6.45 E.5377
G1 X8.098 Y-6.45 E.02409
G1 X18.95 Y4.402 E.57177
G1 X18.878 Y4.976 E.02158
G1 X7.452 Y-6.45 E.60206
G1 X6.805 Y-6.45 E.02409
G1 X18.694 Y5.439 E.62643
G1 X18.42 Y5.811 E.01723
G1 X6.159 Y-6.45 E.64604
G1 X5.512 Y-6.45 E.02409
G1 X18.068 Y6.106 E.66159
G1 X17.971 Y6.181 E.00459
G1 X17.635 Y6.32 E.01352
G1 X4.865 Y-6.45 E.67285
G1 X4.219 Y-6.45 E.02409
G1 X17.097 Y6.428 E.67856
G1 X16.931 Y6.45 E.00624
G1 X16.472 Y6.45 E.01709
G1 X3.572 Y-6.45 E.67971
G1 X2.926 Y-6.45 E.02409
G1 X15.826 Y6.45 E.67971
G1 X15.179 Y6.45 E.02409
G1 X2.279 Y-6.45 E.67971
G1 X1.632 Y-6.45 E.02409
G1 X14.533 Y6.45 E.67971
G1 X13.886 Y6.45 E.02409
G1 X.986 Y-6.45 E.67971
G1 X.339 Y-6.45 E.02409
G1 X13.239 Y6.45 E.67971
G1 X12.593 Y6.45 E.02409
G1 X-.307 Y-6.45 E.67971
G1 X-.954 Y-6.45 E.02409
G1 X11.946 Y6.45 E.67971
G1 X11.3 Y6.45 E.02409
G1 X-1.601 Y-6.45 E.67971
G1 X-2.247 Y-6.45 E.02409
G1 X10.653 Y6.45 E.67971
G1 X10.006 Y6.45 E.02409
G1 X-2.894 Y-6.45 E.67971
G1 X-3.54 Y-6.45 E.02409
G1 X9.36 Y6.45 E.67971
G1 X8.713 Y6.45 E.02409
G1 X-4.187 Y-6.45 E.67971
G1 X-4.834 Y-6.45 E.02409
G1 X8.067 Y6.45 E.67971
G1 X7.42 Y6.45 E.02409
G1 X-5.48 Y-6.45 E.67971
G1 X-6.127 Y-6.45 E.02409
G1 X6.773 Y6.45 E.67971
G1 X6.127 Y6.45 E.02409
G1 X-6.773 Y-6.45 E.67971
G1 X-7.42 Y-6.45 E.02409
G1 X5.48 Y6.45 E.67971
G1 X4.834 Y6.45 E.02409
G1 X-8.067 Y-6.45 E.67971
G1 X-8.713 Y-6.45 E.02409
G1 X4.187 Y6.45 E.67971
G1 X3.54 Y6.45 E.02409
G1 X-9.36 Y-6.45 E.67971
G1 X-10.006 Y-6.45 E.02409
G1 X2.894 Y6.45 E.67971
G1 X2.247 Y6.45 E.02409
G1 X-10.653 Y-6.45 E.67971
G1 X-11.3 Y-6.45 E.02409
G1 X1.601 Y6.45 E.67971
G1 X.954 Y6.45 E.02409
G1 X-11.946 Y-6.45 E.67971
G1 X-12.593 Y-6.45 E.02409
G1 X.307 Y6.45 E.67971
G1 X-.339 Y6.45 E.02409
G1 X-13.239 Y-6.45 E.67971
G1 X-13.886 Y-6.45 E.02409
G1 X-.986 Y6.45 E.67971
G1 X-1.632 Y6.45 E.02409
G1 X-14.533 Y-6.45 E.67971
G1 X-15.179 Y-6.45 E.02409
G1 X-2.279 Y6.45 E.67971
G1 X-2.926 Y6.45 E.02409
G1 X-15.826 Y-6.45 E.67971
G1 X-16.473 Y-6.45 E.02409
G1 X-3.572 Y6.45 E.67971
G1 X-4.219 Y6.45 E.02409
G1 X-17.097 Y-6.428 E.67856
G1 X-17.502 Y-6.375 E.01522
G1 X-17.635 Y-6.32 E.00537
G1 X-4.865 Y6.45 E.67285
G1 X-5.512 Y6.45 E.02409
G1 X-18.068 Y-6.106 E.66158
G1 X-18.373 Y-5.873 E.01429
G1 X-18.42 Y-5.811 E.00289
G1 X-6.159 Y6.45 E.64604
G1 X-6.805 Y6.45 E.02409
G1 X-18.694 Y-5.439 E.62643
G1 X-18.878 Y-4.976 E.01855
G1 X-7.452 Y6.45 E.60206
G1 X-8.099 Y6.45 E.02409
G1 X-18.95 Y-4.401 E.57177
G1 X-18.95 Y-3.755 E.02409
G1 X-8.745 Y6.45 E.5377
G1 X-9.392 Y6.45 E.02409
G1 X-18.95 Y-3.108 E.50363
G1 X-18.95 Y-2.462 E.02409
G1 X-10.038 Y6.45 E.46956
G1 X-10.685 Y6.45 E.02409
G1 X-18.95 Y-1.815 E.43549
G1 X-18.95 Y-1.168 E.02409
G1 X-11.332 Y6.45 E.40142
G1 X-11.978 Y6.45 E.02409
G1 X-18.95 Y-.522 E.36735
G1 X-18.95 Y.125 E.02409
G1 X-12.625 Y6.45 E.33328
G1 X-13.271 Y6.45 E.02409
G1 X-18.95 Y.771 E.29921
G1 X-18.95 Y1.418 E.02409
G1 X-13.918 Y6.45 E.26514
G1 X-14.565 Y6.45 E.02409
G1 X-18.95 Y2.065 E.23107
G1 X-18.95 Y2.711 E.02409
G1 X-15.211 Y6.45 E.197
G1 X-15.858 Y6.45 E.02409
G1 X-18.95 Y3.358 E.16293
G1 X-18.95 Y4.004 E.02409
G1 X-16.504 Y6.45 E.12887
G1 X-16.931 Y6.45 E.0159
G1 X-17.184 Y6.417 E.00951
G1 X-19.156 Y4.445 E.10387
M106 S255
M106 P2 S178
;LAYER_CHANGE
;Z:0.4
;HEIGHT:0.2
;BEFORE_LAYER_CHANGE
;0.4
G92 E0

;WIPE_START
G1 F1800
G1 X-18.449 Y5.153
;WIPE_END
;AFTER_LAYER_CHANGE
;0.4
;_SET_FAN_SPEED_CHANGING_LAYER
; Calib_Retraction_tower: Z_HEIGHT: 0.4, length:0
M204 S5000
M104 S210 ; set nozzle temperature
M204 S7000
G1 X19.331 Y-5.124 Z.4 F21000
M204 S5000
;TYPE:Inner wall
;WIDTH:0.449999
G1 F1200
G1 X19.418 Y-4.29 E.02785
G1 X19.418 Y4.462 E.2903
G1 X19.331 Y5.125 E.02217
G1 X19.09 Y5.706 E.02089
G1 X18.706 Y6.206 E.02089
G1 X18.206 Y6.59 E.02089
G1 X17.624 Y6.831 E.02089
G1 X16.962 Y6.918 E.02217
G1 X-16.962 Y6.918 E1.12531
G1 X-17.624 Y6.831 E.02217
G1 X-18.206 Y6.59 E.02089
G1 X-18.706 Y6.206 E.02089
G1 X-19.09 Y5.706 E.02089
G1 X-19.331 Y5.125 E.02089
G1 X-19.418 Y4.462 E.02217
G1 X-19.418 Y-4.462 E.29601
G1 X-19.331 Y-5.124 E.02217
G1 X-19.09 Y-5.706 E.02089
G1 X-18.706 Y-6.206 E.02089
G1 X-18.206 Y-6.59 E.02089
G1 X-17.624 Y-6.831 E.02089
G1 X-16.962 Y-6.918 E.02217
G1 X16.962 Y-6.918 E1.12531
G1 X17.624 Y-6.831 E.02217
G1 X18.206 Y-6.59 E.02089
G1 X18.706 Y-6.206 E.02089
G1 X19.09 Y-5.706 E.02089
G1 X19.315 Y-5.161 E.01957
M204 S7000
G1 X19.703 Y-5.224 F21000
M204 S3000
;TYPE:Outer wall
;WIDTH:0.399999
G1 F750
G1 X19.8 Y-4.29 E.02734
G1 X19.8 Y4.487 E.25537
G1 X19.703 Y5.224 E.02164
G1 X19.423 Y5.899 E.02126
G1 X18.979 Y6.479 E.02126
G1 X18.399 Y6.923 E.02126
G1 X17.724 Y7.203 E.02126
G1 X16.987 Y7.3 E.02164
G1 X-16.987 Y7.3 E.98855
G1 X-17.724 Y7.203 E.02164
G1 X-18.399 Y6.923 E.02126
G1 X-18.979 Y6.479 E.02126
G1 X-19.423 Y5.899 E.02126
G1 X-19.703 Y5.224 E.02126
G1 X-19.8 Y4.487 E.02164
G1 X-19.8 Y-4.487 E.26111
G1 X-19.703 Y-5.224 E.02164
G1 X-19.423 Y-5.899 E.02126
G1 X-18.979 Y-6.479 E.02126
G1 X-18.399 Y-6.923 E.02126
G1 X-17.724 Y-7.203 E.02126
G1 X-16.987 Y-7.3 E.02164
G1 X16.987 Y-7.3 E.98855
G1 X17.724 Y-7.203 E.02164
G1 X18.399 Y-6.923 E.02126
G1 X18.979 Y-6.479 E.02126
G1 X19.423 Y-5.899 E.02126
G1 X19.688 Y-5.261 E.02009
M204 S7000
;WIPE_START
G1 X19.8 Y-4.29
G1 X19.8 Y-4.268
;WIPE_END
G1 X17.25 Y6.759 F21000
M204 S5000
;TYPE:Internal solid infill
;WIDTH:0.400329
G1 F6900
G1 X19.073 Y4.936 E.07509
G1 X19.138 Y4.366 E.01672
G1 X16.866 Y6.638 E.09357
G1 X16.36 Y6.638 E.01472
G1 X19.138 Y3.86 E.11439
G1 X19.138 Y3.355 E.01472
G1 X15.855 Y6.638 E.13521
G1 X15.35 Y6.638 E.01472
G1 X19.138 Y2.85 E.15602
G1 X19.138 Y2.344 E.01472
G1 X14.844 Y6.638 E.17684
G1 X14.339 Y6.638 E.01472
G1 X19.138 Y1.839 E.19766
G1 X19.138 Y1.333 E.01472
G1 X13.833 Y6.638 E.21848
G1 X13.328 Y6.638 E.01472
G1 X19.138 Y.828 E.2393
G1 X19.138 Y.322 E.01472
G1 X12.822 Y6.638 E.26012
G1 X12.317 Y6.638 E.01472
G1 X19.138 Y-.183 E.28094
G1 X19.138 Y-.689 E.01472
G1 X11.811 Y6.638 E.30175
G1 X11.306 Y6.638 E.01472
G1 X19.138 Y-1.194 E.32257
G1 X19.138 Y-1.7 E.01472
G1 X10.8 Y6.638 E.34339
G1 X10.295 Y6.638 E.01472
G1 X19.138 Y-2.205 E.36421
G1 X19.138 Y-2.71 E.01472
G1 X9.79 Y6.638 E.38503
G1 X9.284 Y6.638 E.01472
G1 X19.138 Y-3.216 E.40585
G1 X19.138 Y-3.721 E.01472
G1 X8.779 Y6.638 E.42667
G1 X8.273 Y6.638 E.01472
G1 X19.138 Y-4.227 E.44748
G1 X19.138 Y-4.443 E.00631
G1 X19.104 Y-4.699 E.0075
G1 X7.768 Y6.638 E.46692
G1 X7.262 Y6.638 E.01472
G1 X19.026 Y-5.127 E.48454
G1 X18.878 Y-5.484 E.01127
G1 X6.757 Y6.638 E.49926
G1 X6.251 Y6.638 E.01472
G1 X18.675 Y-5.786 E.51171
G1 X18.506 Y-6.006 E.00808
G1 X18.44 Y-6.057 E.00242
G1 X5.746 Y6.638 E.52286
G1 X5.24 Y6.638 E.01472
G1 X18.154 Y-6.276 E.5319
G1 X18.065 Y-6.345 E.00328
G1 X17.819 Y-6.447 E.00775
G1 X4.735 Y6.638 E.53891
G1 X4.23 Y6.638 E.01472
G1 X17.439 Y-6.572 E.54409
G1 X16.993 Y-6.631 E.01312
G1 X3.724 Y6.638 E.54651
G1 X3.219 Y6.638 E.01472
G1 X16.494 Y-6.638 E.54678
G1 X15.988 Y-6.638 E.01472
G1 X2.713 Y6.638 E.54678
G1 X2.208 Y6.638 E.01472
G1 X15.483 Y-6.638 E.54678
G1 X14.978 Y-6.638 E.01472
G1 X1.702 Y6.638 E.54678
G1 X1.197 Y6.638 E.01472
G1 X14.472 Y-6.638 E.54678
G1 X13.967 Y-6.638 E.01472
G1 X.691 Y6.638 E.54678
G1 X.186 Y6.638 E.01472
G1 X13.461 Y-6.638 E.54678
G1 X12.956 Y-6.638 E.01472
G1 X-.32 Y6.638 E.54678
G1 X-.825 Y6.638 E.01472
G1 X12.45 Y-6.638 E.54678
G1 X11.945 Y-6.638 E.01472
G1 X-1.33 Y6.638 E.54678
G1 X-1.836 Y6.638 E.01472
G1 X11.439 Y-6.638 E.54678
G1 X10.934 Y-6.638 E.01472
G1 X-2.341 Y6.638 E.54678
G1 X-2.847 Y6.638 E.01472
G1 X10.428 Y-6.638 E.54678
G1 X9.923 Y-6.638 E.01472
G1 X-3.352 Y6.638 E.54678
G1 X-3.858 Y6.638 E.01472
G1 X9.418 Y-6.638 E.54678
G1 X8.912 Y-6.638 E.01472
G1 X-4.363 Y6.638 E.54678
G1 X-4.869 Y6.638 E.01472
G1 X8.407 Y-6.638 E.54678
G1 X7.901 Y-6.638 E.01472
G1 X-5.374 Y6.638 E.54678
G1 X-5.88 Y6.638 E.01472
G1 X7.396 Y-6.638 E.54678
G1 X6.89 Y-6.638 E.01472
G1 X-6.385 Y6.638 E.54678
G1 X-6.89 Y6.638 E.01472
G1 X6.385 Y-6.638 E.54678
G1 X5.879 Y-6.638 E.01472
G1 X-7.396 Y6.638 E.54678
G1 X-7.901 Y6.638 E.01472
G1 X5.374 Y-6.638 E.54678
G1 X4.868 Y-6.638 E.01472
G1 X-8.407 Y6.638 E.54678
G1 X-8.912 Y6.638 E.01472
G1 X4.363 Y-6.638 E.54678
G1 X3.858 Y-6.638 E.01472
G1 X-9.418 Y6.638 E.54678
G1 X-9.923 Y6.638 E.01472
G1 X3.352 Y-6.638 E.54678
G1 X2.847 Y-6.638 E.01472
G1 X-10.429 Y6.638 E.54678
G1 X-10.934 Y6.638 E.01472
G1 X2.341 Y-6.638 E.54678
G1 X1.836 Y-6.638 E.01472
G1 X-11.439 Y6.638 E.54678
G1 X-11.945 Y6.638 E.01472
G1 X1.33 Y-6.638 E.54678
G1 X.825 Y-6.638 E.01472
G1 X-12.45 Y6.638 E.54678
G1 X-12.956 Y6.638 E.01472
G1 X.319 Y-6.638 E.54678
G1 X-.186 Y-6.638 E.01472
G1 X-13.461 Y6.638 E.54678
G1 X-13.967 Y6.638 E.01472
G1 X-.692 Y-6.638 E.54678
G1 X-1.197 Y-6.638 E.01472
G1 X-14.472 Y6.638 E.54678
G1 X-14.978 Y6.638 E.01472
G1 X-1.702 Y-6.638 E.54678
G1 X-2.208 Y-6.638 E.01472
G1 X-15.483 Y6.638 E.54678
G1 X-15.989 Y6.638 E.01472
G1 X-2.713 Y-6.638 E.54678
G1 X-3.219 Y-6.638 E.01472
G1 X-16.494 Y6.638 E.54678
G1 X-16.993 Y6.631 E.01453
G1 X-3.724 Y-6.638 E.54651
G1 X-4.23 Y-6.638 E.01472
G1 X-17.44 Y6.572 E.54409
G1 X-17.551 Y6.558 E.00328
G1 X-17.819 Y6.447 E.00845
G1 X-4.735 Y-6.638 E.53891
G1 X-5.241 Y-6.638 E.01472
G1 X-18.154 Y6.276 E.5319
G1 X-18.44 Y6.057 E.0105
G1 X-5.746 Y-6.638 E.52286
G1 X-6.251 Y-6.638 E.01472
G1 X-18.675 Y5.786 E.51171
G1 X-18.845 Y5.565 E.00811
G1 X-18.878 Y5.484 E.00256
G1 X-6.757 Y-6.638 E.49926
G1 X-7.262 Y-6.638 E.01472
G1 X-19.026 Y5.126 E.48454
G1 X-19.058 Y5.051 E.00237
G1 X-19.104 Y4.699 E.01036
G1 X-7.768 Y-6.638 E.46691
G1 X-8.273 Y-6.638 E.01472
G1 X-19.138 Y4.227 E.44748
G1 X-19.138 Y3.721 E.01472
G1 X-8.779 Y-6.638 E.42666
G1 X-9.284 Y-6.638 E.01472
G1 X-19.138 Y3.216 E.40584
G1 X-19.138 Y2.71 E.01472
G1 X-9.79 Y-6.638 E.38502
G1 X-10.295 Y-6.638 E.01472
G1 X-19.138 Y2.205 E.3642
G1 X-19.138 Y1.699 E.01472
G1 X-10.801 Y-6.638 E.34339
G1 X-11.306 Y-6.638 E.01472
G1 X-19.138 Y1.194 E.32257
G1 X-19.138 Y.689 E.01472
G1 X-11.811 Y-6.638 E.30175
G1 X-12.317 Y-6.638 E.01472
G1 X-19.138 Y.183 E.28093
G1 X-19.138 Y-.322 E.01472
G1 X-12.822 Y-6.638 E.26011
G1 X-13.328 Y-6.638 E.01472
G1 X-19.138 Y-.828 E.23929
G1 X-19.138 Y-1.333 E.01472
G1 X-13.833 Y-6.638 E.21847
G1 X-14.339 Y-6.638 E.01472
G1 X-19.138 Y-1.839 E.19766
G1 X-19.138 Y-2.344 E.01472
G1 X-14.844 Y-6.638 E.17684
G1 X-15.35 Y-6.638 E.01472
G1 X-19.138 Y-2.85 E.15602
G1 X-19.138 Y-3.355 E.01472
G1 X-15.855 Y-6.638 E.1352
G1 X-16.361 Y-6.638 E.01472
G1 X-19.138 Y-3.861 E.11438
G1 X-19.138 Y-4.366 E.01472
G1 X-16.866 Y-6.638 E.09356
G1 X-17.436 Y-6.573 E.01672
G1 X-19.259 Y-4.75 E.07509
;LAYER_CHANGE
;Z:0.6
;HEIGHT:0.2
;BEFORE_LAYER_CHANGE
;0.6
G92 E0

;WIPE_START
G1 F6900
G1 X-18.552 Y-5.457
;WIPE_END
;AFTER_LAYER_CHANGE
;0.6
;_SET_FAN_SPEED_CHANGING_LAYER
; Calib_Retraction_tower: Z_HEIGHT: 0.6, length:0
M204 S7000
G1 X-13.351 Y.026 Z.6 F21000
M204 S5000
;TYPE:Inner wall
;WIDTH:0.449999
G1 F1189
G1 X-13.552 Y.856 E.02831
G1 X-13.74 Y1.235 E.01404
G1 X-14.032 Y1.628 E.01623
G1 X-14.388 Y1.944 E.01578
G1 X-14.766 Y2.172 E.01465
G1 X-15.41 Y2.383 E.02248
G1 X-15.887 Y2.413 E.01587
G1 X-16.173 Y2.373 E.00958
G1 X-16.741 Y2.223 E.01948
G1 X-17.166 Y1.991 E.01606
G1 X-17.531 Y1.683 E.01587
G1 X-17.923 Y1.132 E.02242
G1 X-18.091 Y.725 E.0146
G1 X-18.189 Y.253 E.01599
G1 X-18.194 Y-.213 E.01548
G1 X-18.112 Y-.657 E.01496
G1 X-17.946 Y-1.083 E.01517
G1 X-17.703 Y-1.469 E.01512
G1 X-17.392 Y-1.801 E.01511
G1 X-17.024 Y-2.069 E.0151
G1 X-16.612 Y-2.263 E.01509
G1 X-16.173 Y-2.375 E.01503
G1 X-15.738 Y-2.405 E.01446
G1 X-15.264 Y-2.339 E.01587
G1 X-14.817 Y-2.194 E.01561
G1 X-14.441 Y-1.984 E.01428
G1 X-14.085 Y-1.686 E.01539
G1 X-13.797 Y-1.33 E.0152
G1 X-13.581 Y-.927 E.01515
G1 X-13.446 Y-.492 E.01512
G1 X-13.359 Y-.013 E.01614
M204 S7000
G1 X-12.927 Y-.008 F21000
M204 S3000
;TYPE:Outer wall
;WIDTH:0.399999
G1 F1189
G1 X-13.006 Y.2 E.00647
G1 X-13.11 Y.771 E.0169
G1 X-13.275 Y1.204 E.01347
G1 X-13.563 Y1.682 E.01623
G1 X-13.939 Y2.091 E.01617
G1 X-14.391 Y2.417 E.01622
G1 X-14.809 Y2.616 E.01347
G1 X-15.347 Y2.762 E.01623
G1 X-15.902 Y2.797 E.01617
